/* XPM */
static char *door2x3[] = {
/* columns rows colors chars-per-pixel */
"48 48 16 1 ",
"  c #FF04FF",
". c #332C2C",
"X c #413737",
"o c #57514E",
"O c #A09A8E",
"+ c #F0EEE9",
"@ c black",
"# c black",
"$ c black",
"% c black",
"& c black",
"* c black",
"= c black",
"- c black",
"; c black",
": c black",
/* pixels */
"XXXXXXXXXXXXXXXXXXXXXXXXXXXXXXXXXXXXXXXXXXXXXXXX",
"XXXXXXXXXXXXXXXXXXXXXXXXXXXXXXXXXXXXXXXXXXXXXXXX",
"XXXXXXXXXXXXXXXXXXXXXXXXXXXXXXXXXXXXXXXXXXXXXXXX",
"XXX++++++XXX+++++++++++++++++++++++++++++++++XXX",
"XXX++++++XXX+++++++++++++++++++++++++++++++++XXX",
"XXX++++++XXX+++++++++++++++++++++++++++++++++XXX",
"XXX+++XXX+++XXXooooooooooooooooooooo+++++++++XXX",
"XXX+++XXX+++XXXooooooooooooooooooooo+++++++++XXX",
"XXX+++XXX+++XXXooooooooooooooooooooo+++++++++XXX",
"XXXXXXXXXXXX++++++++++++++++++++++++XXXXXXXXXXXX",
"XXXXXXXXXXXX++++++++++++++++++++++++XXXXXXXXXXXX",
"XXXXXXXXXXXX++++++++++++++++++++++++XXXXXXXXXXXX",
"XXXOOOOOOXXX++++++++++++++++++++++++XXXOOOXXXXXX",
"XXXOOOOOOXXX++++++++++++++++++++++++XXXOOOXXXXXX",
"XXXOOOOOOXXX++++++++++++++++++++++++XXXOOOXXXXXX",
"XXXXXXOOOooo+++++++++XXXXXX+++++++++oooXXXXXXXXX",
"XXXXXXOOOooo+++++++++XXXXXX+++++++++oooXXXXXXXXX",
"XXXXXXOOOooo+++++++++XXXXXX+++++++++oooXXXXXXXXX",
"XXXXXXOOOooo++++++XXXXXXXXXXXX++++++oooOOOXXXXXX",
"XXXXXXOOOooo++++++XXXXXXXXXXXX++++++oooOOOXXXXXX",
"XXXXXXOOOooo++++++XXXXXXXXXXXX++++++oooOOOXXXXXX",
"XXXXXXOOOooo++++++XXXXXXXXXXXX++++++oooOOOXXXXXX",
"XXXXXXOOOooo++++++XXXXXXXXXXXX++++++oooOOOXXXXXX",
"XXXXXXOOOooo++++++XXXXXXXXXXXX++++++oooOOOXXXXXX",
"XXXXXXOOOooo+++++++++XXXXXX+++++++++oooOOOXXXXXX",
"XXXXXXOOOooo+++++++++XXXXXX+++++++++oooOOOXXXXXX",
"XXXXXXOOOooo+++++++++XXXXXX+++++++++oooOOOXXXXXX",
"XXXXXXOOOooo+++++++++XXXXXX+++++++++oooOOOXXXXXX",
"XXXXXXOOOooo+++++++++XXXXXX+++++++++oooOOOXXXXXX",
"XXXXXXOOOooo+++++++++XXXXXX+++++++++oooOOOXXXXXX",
"XXXXXXOOOooo+++++++++XXXXXX+++++++++oooOOOXXXXXX",
"XXXXXXOOOooo+++++++++XXXXXX+++++++++oooOOOXXXXXX",
"XXXXXXOOOooo+++++++++XXXXXX+++++++++oooOOOXXXXXX",
"XXXXXXOOOooo++++++++++++++++++++++++oooOOOXXXXXX",
"XXXXXXOOOooo++++++++++++++++++++++++oooOOOXXXXXX",
"XXXXXXOOOooo++++++++++++++++++++++++oooOOOXXXXXX",
"XXXXXXXXXXXX++++++++++++++++++++++++XXXXXXXXXXXX",
"XXXXXXXXXXXX++++++++++++++++++++++++XXXXXXXXXXXX",
"XXXXXXXXXXXX++++++++++++++++++++++++XXXXXXXXXXXX",
"XXX+++XXXXXXXXXooooooooooooooooooooo+++XXX+++XXX",
"XXX+++XXXXXXXXXooooooooooooooooooooo+++XXX+++XXX",
"XXX+++XXXXXXXXXooooooooooooooooooooo+++XXX+++XXX",
"XXX+++XXX++++++++++++++++++++++++++++++XXX+++XXX",
"XXX+++XXX++++++++++++++++++++++++++++++XXX+++XXX",
"XXX+++XXX++++++++++++++++++++++++++++++XXX+++XXX",
"XXXXXXXXXXXXXXXXXXXXXXXXXXXXXXXXXXXXXXXXXXXXXXXX",
"XXXXXXXXXXXXXXXXXXXXXXXXXXXXXXXXXXXXXXXXXXXXXXXX",
"XXXXXXXXXXXXXXXXXXXXXXXXXXXXXXXXXXXXXXXXXXXXXXXX"
};
