/* XPM */
static char *enemy2x3_05[] = {
/* columns rows colors chars-per-pixel */
"48 48 16 1 ",
"  c #FF04FF",
". c #332C2C",
"X c #413737",
"o c #57514E",
"O c #A09A8E",
"+ c #F0EEE9",
"@ c black",
"# c black",
"$ c black",
"% c black",
"& c black",
"* c black",
"= c black",
"- c black",
"; c black",
": c black",
/* pixels */
"XXXXXXXXXXXXXXXXXXXXXXXXXXXXXXXXXXXXXXXXXXXXXXXX",
"XXXXXXXXXXXXXXXXXXXXXXXXXXXXXXXXXXXXXXXXXXXXXXXX",
"XXXXXXXXXXXXXXXXXXXXXXXXXXXXXXXXXXXXXXXXXXXXXXXX",
"XXX......XXXXXX...XXXXXXXXX...............XXXXXX",
"XXX......XXXXXX...XXXXXXXXX...............XXXXXX",
"XXX......XXXXXX...XXXXXXXXX...............XXXXXX",
"XXXXXXXXXXXXXXXXXXXXXXXXXXXXXXXXXXXXXXXXXXXXXXXX",
"XXXXXXXXXXXXXXXXXXXXXXXXXXXXXXXXXXXXXXXXXXXXXXXX",
"XXXXXXXXXXXXXXXXXXXXXXXXXXXXXXXXXXXXXXXXXXXXXXXX",
"XXXXXXXXXXXXXXXXXXXXXXXXXXXXXXXXXXXXXXXXXXXXXXXX",
"XXXXXXXXXXXXXXXXXXXXXXXXXXXXXXXXXXXXXXXXXXXXXXXX",
"XXXXXXXXXXXXXXXXXXXXXXXXXXXXXXXXXXXXXXXXXXXXXXXX",
"XXXXXXXXXXXX+++XXXXXXXXXXXXXXXXXX+++XXXXXXXXXXXX",
"XXXXXXXXXXXX+++XXXXXXXXXXXXXXXXXX+++XXXXXXXXXXXX",
"XXXXXXXXXXXX+++XXXXXXXXXXXXXXXXXX+++XXXXXXXXXXXX",
"XXXXXXXXX++++++...+++XXXXXX+++...++++++......XXX",
"XXXXXXXXX++++++...+++XXXXXX+++...++++++......XXX",
"XXXXXXXXX++++++...+++XXXXXX+++...++++++......XXX",
"XXXXXXXXX++++++XXX++++++++++++XXX++++++XXXXXXXXX",
"XXXXXXXXX++++++XXX++++++++++++XXX++++++XXXXXXXXX",
"XXXXXXXXX++++++XXX++++++++++++XXX++++++XXXXXXXXX",
"XXXXXX++++++++++++++++++++++++++++++++++++XXXXXX",
"XXXXXX++++++++++++++++++++++++++++++++++++XXXXXX",
"XXXXXX++++++++++++++++++++++++++++++++++++XXXXXX",
"XXXXXX++++++++++++ooo++++++ooo++++++++++++XXXXXX",
"XXXXXX++++++++++++ooo++++++ooo++++++++++++XXXXXX",
"XXXXXX++++++++++++ooo++++++ooo++++++++++++XXXXXX",
"XXX......++++++OOO++++++++++++OOO++++++XXXXXXXXX",
"XXX......++++++OOO++++++++++++OOO++++++XXXXXXXXX",
"XXX......++++++OOO++++++++++++OOO++++++XXXXXXXXX",
"XXXXXXXXXXXX......++++++++++++......XXXXXXXXXXXX",
"XXXXXXXXXXXX......++++++++++++......XXXXXXXXXXXX",
"XXXXXXXXXXXX......++++++++++++......XXXXXXXXXXXX",
"XXXXXXXXX.........++++++++++++.........XXXXXXXXX",
"XXXXXXXXX.........++++++++++++.........XXXXXXXXX",
"XXXXXXXXX.........++++++++++++.........XXXXXXXXX",
"XXXXXXXXX.........+++......+++.........XXXXXXXXX",
"XXXXXXXXX.........+++......+++.........XXXXXXXXX",
"XXXXXXXXX.........+++......+++.........XXXXXXXXX",
"XXX.......................................XXXXXX",
"XXX.......................................XXXXXX",
"XXX.......................................XXXXXX",
"XXXXXXXXXXXX........................XXXXXXXXXXXX",
"XXXXXXXXXXXX........................XXXXXXXXXXXX",
"XXXXXXXXXXXX........................XXXXXXXXXXXX",
"XXXXXXXXXXXXXXXXXX............XXXXXXXXXXXXXXXXXX",
"XXXXXXXXXXXXXXXXXX............XXXXXXXXXXXXXXXXXX",
"XXXXXXXXXXXXXXXXXX............XXXXXXXXXXXXXXXXXX"
};
