/* XPM */
static char *enemy2x3_04[] = {
/* columns rows colors chars-per-pixel */
"48 48 16 1 ",
"  c #FF04FF",
". c #332C2C",
"X c #413737",
"o c #57514E",
"O c #A09A8E",
"+ c #F0EEE9",
"@ c black",
"# c black",
"$ c black",
"% c black",
"& c black",
"* c black",
"= c black",
"- c black",
"; c black",
": c black",
/* pixels */
"XXXXXXXXXXXXXXXXXXXXXXXXXXXXXXXXXXXXXXXXXXXXXXXX",
"XXXXXXXXXXXXXXXXXXXXXXXXXXXXXXXXXXXXXXXXXXXXXXXX",
"XXXXXXXXXXXXXXXXXXXXXXXXXXXXXXXXXXXXXXXXXXXXXXXX",
"XXX......XXXXXX...XXXXXXXXX...............XXXXXX",
"XXX......XXXXXX...XXXXXXXXX...............XXXXXX",
"XXX......XXXXXX...XXXXXXXXX...............XXXXXX",
"XXXXXXXXXXXXXXXXXXXXXXXXXXXXXXXXXXXXXXXXXXXXXXXX",
"XXXXXXXXXXXXXXXXXXXXXXXXXXXXXXXXXXXXXXXXXXXXXXXX",
"XXXXXXXXXXXXXXXXXXXXXXXXXXXXXXXXXXXXXXXXXXXXXXXX",
"XXXXXXXXXXXXXXXXXXXXXXXXXXXXXXXXXXXXXXXXXXXXXXXX",
"XXXXXXXXXXXXXXXXXXXXXXXXXXXXXXXXXXXXXXXXXXXXXXXX",
"XXXXXXXXXXXXXXXXXXXXXXXXXXXXXXXXXXXXXXXXXXXXXXXX",
"XXXXXXXXXXXXXXXXXX+++XXXXXX+++XXXXXXXXXXXXXXXXXX",
"XXXXXXXXXXXXXXXXXX+++XXXXXX+++XXXXXXXXXXXXXXXXXX",
"XXXXXXXXXXXXXXXXXX+++XXXXXX+++XXXXXXXXXXXXXXXXXX",
"XXXXXXXXX+++......++++++++++++...XXX+++......XXX",
"XXXXXXXXX+++......++++++++++++...XXX+++......XXX",
"XXXXXXXXX+++......++++++++++++...XXX+++......XXX",
"XXXXXX+++++++++XXX++++++++++++XXX+++++++++XXXXXX",
"XXXXXX+++++++++XXX++++++++++++XXX+++++++++XXXXXX",
"XXXXXX+++++++++XXX++++++++++++XXX+++++++++XXXXXX",
"XXX++++++++++++OOOooo++++++oooOOO++++++++++++XXX",
"XXX++++++++++++OOOooo++++++oooOOO++++++++++++XXX",
"XXX++++++++++++OOOooo++++++oooOOO++++++++++++XXX",
"XXX++++++++++++OOO++++++++++++OOO++++++++++++XXX",
"XXX++++++++++++OOO++++++++++++OOO++++++++++++XXX",
"XXX++++++++++++OOO++++++++++++OOO++++++++++++XXX",
"XXX++++++++++++XXX++++++++++++...++++++++++++XXX",
"XXX++++++++++++XXX++++++++++++...++++++++++++XXX",
"XXX++++++++++++XXX++++++++++++...++++++++++++XXX",
"XXX+++XXXXXX......++++++++++++......XXXXXX+++XXX",
"XXX+++XXXXXX......++++++++++++......XXXXXX+++XXX",
"XXX+++XXXXXX......++++++++++++......XXXXXX+++XXX",
"XXXXXXXXX.........+++......+++.........XXXXXXXXX",
"XXXXXXXXX.........+++......+++.........XXXXXXXXX",
"XXXXXXXXX.........+++......+++.........XXXXXXXXX",
"XXXXXXXXX..............................XXXXXXXXX",
"XXXXXXXXX..............................XXXXXXXXX",
"XXXXXXXXX..............................XXXXXXXXX",
"XXX.......................................XXXXXX",
"XXX.......................................XXXXXX",
"XXX.......................................XXXXXX",
"XXXXXXXXXXXX........................XXXXXXXXXXXX",
"XXXXXXXXXXXX........................XXXXXXXXXXXX",
"XXXXXXXXXXXX........................XXXXXXXXXXXX",
"XXXXXXXXXXXXXXXXXX............XXXXXXXXXXXXXXXXXX",
"XXXXXXXXXXXXXXXXXX............XXXXXXXXXXXXXXXXXX",
"XXXXXXXXXXXXXXXXXX............XXXXXXXXXXXXXXXXXX"
};
