/* XPM */
static char *exit1x3[] = {
/* columns rows colors chars-per-pixel */
"48 48 16 1 ",
"  c #FF04FF",
". c #332C2C",
"X c #413737",
"o c #57514E",
"O c #A09A8E",
"+ c #F0EEE9",
"@ c black",
"# c black",
"$ c black",
"% c black",
"& c black",
"* c black",
"= c black",
"- c black",
"; c black",
": c black",
/* pixels */
"XXXXXXXXXXXXXXXXXXXXXXXXXXXXXXXXXXXXXXXXXXXXXXXX",
"XXXXXXXXXXXXXXXXXXXXXXXXXXXXXXXXXXXXXXXXXXXXXXXX",
"XXXXXXXXXXXXXXXXXXXXXXXXXXXXXXXXXXXXXXXXXXXXXXXX",
"XXXXXXXXXXXXXXXXXXXXXXXXXXXXXXXXXXXXXXXXXXXXXXXX",
"XXXXXXXXXXXXXXXXXXXXXXXXXXXXXXXXXXXXXXXXXXXXXXXX",
"XXXXXXXXXXXXXXXXXXXXXXXXXXXXXXXXXXXXXXXXXXXXXXXX",
"XXXXXX++++++++++++++++++++++++++++++++++++XXXXXX",
"XXXXXX++++++++++++++++++++++++++++++++++++XXXXXX",
"XXXXXX++++++++++++++++++++++++++++++++++++XXXXXX",
"XXXXXXXXXXXXXXXXXXXXXXXXXXXXXXXXXXXXXXX+++XXXXXX",
"XXXXXXXXXXXXXXXXXXXXXXXXXXXXXXXXXXXXXXX+++XXXXXX",
"XXXXXXXXXXXXXXXXXXXXXXXXXXXXXXXXXXXXXXX+++XXXXXX",
"XXXXXX++++++XXXXXXXXXXXXXXXXXXXXXXXXXXX+++XXXXXX",
"XXXXXX++++++XXXXXXXXXXXXXXXXXXXXXXXXXXX+++XXXXXX",
"XXXXXX++++++XXXXXXXXXXXXXXXXXXXXXXXXXXX+++XXXXXX",
"XXXXXX++++++XXXXXXXXXXXXXXXXXXXXXXXXXXX+++XXXXXX",
"XXXXXX++++++XXXXXXXXXXXXXXXXXXXXXXXXXXX+++XXXXXX",
"XXXXXX++++++XXXXXXXXXXXXXXXXXXXXXXXXXXX+++XXXXXX",
"XXXXXX++++++XXXOOOOOOXXXXXXXXXXXXXXXXXX+++XXXXXX",
"XXXXXX++++++XXXOOOOOOXXXXXXXXXXXXXXXXXX+++XXXXXX",
"XXXXXX++++++XXXOOOOOOXXXXXXXXXXXXXXXXXX+++XXXXXX",
"XXXXXX++++++XXXOOOOOOXXXXXXXXXXXXXXXXXX+++XXXXXX",
"XXXXXX++++++XXXOOOOOOXXXXXXXXXXXXXXXXXX+++XXXXXX",
"XXXXXX++++++XXXOOOOOOXXXXXXXXXXXXXXXXXX+++XXXXXX",
"XXXXXX++++++XXXOOOOOOXXXOOOOOOXXXXXXXXX+++XXXXXX",
"XXXXXX++++++XXXOOOOOOXXXOOOOOOXXXXXXXXX+++XXXXXX",
"XXXXXX++++++XXXOOOOOOXXXOOOOOOXXXXXXXXX+++XXXXXX",
"XXXXXX++++++XXXOOOOOOXXXOOOOOOXXXXXXXXX+++XXXXXX",
"XXXXXX++++++XXXOOOOOOXXXOOOOOOXXXXXXXXX+++XXXXXX",
"XXXXXX++++++XXXOOOOOOXXXOOOOOOXXXXXXXXX+++XXXXXX",
"XXXXXX++++++XXXOOOOOOXXXOOOOOOXXXoooXXX+++XXXXXX",
"XXXXXX++++++XXXOOOOOOXXXOOOOOOXXXoooXXX+++XXXXXX",
"XXXXXX++++++XXXOOOOOOXXXOOOOOOXXXoooXXX+++XXXXXX",
"XXXXXX++++++XXXOOOOOOXXXOOOOOOXXXoooXXX+++XXXXXX",
"XXXXXX++++++XXXOOOOOOXXXOOOOOOXXXoooXXX+++XXXXXX",
"XXXXXX++++++XXXOOOOOOXXXOOOOOOXXXoooXXX+++XXXXXX",
"XXXXXXXXXXXXXXXXXXXXXXXXXXXXXXXXXXXXXXX+++XXXXXX",
"XXXXXXXXXXXXXXXXXXXXXXXXXXXXXXXXXXXXXXX+++XXXXXX",
"XXXXXXXXXXXXXXXXXXXXXXXXXXXXXXXXXXXXXXX+++XXXXXX",
"XXXXXX++++++++++++++++++++++++++++++++++++XXXXXX",
"XXXXXX++++++++++++++++++++++++++++++++++++XXXXXX",
"XXXXXX++++++++++++++++++++++++++++++++++++XXXXXX",
"XXXXXXXXXXXXXXXXXXXXXXXXXXXXXXXXXXXXXXXXXXXXXXXX",
"XXXXXXXXXXXXXXXXXXXXXXXXXXXXXXXXXXXXXXXXXXXXXXXX",
"XXXXXXXXXXXXXXXXXXXXXXXXXXXXXXXXXXXXXXXXXXXXXXXX",
"XXXXXXXXXXXXXXXXXXXXXXXXXXXXXXXXXXXXXXXXXXXXXXXX",
"XXXXXXXXXXXXXXXXXXXXXXXXXXXXXXXXXXXXXXXXXXXXXXXX",
"XXXXXXXXXXXXXXXXXXXXXXXXXXXXXXXXXXXXXXXXXXXXXXXX"
};
