/* XPM */
static char *player2x3_03[] = {
/* columns rows colors chars-per-pixel */
"48 48 16 1 ",
"  c #FF04FF",
". c #332C2C",
"X c #413737",
"o c #57514E",
"O c #A09A8E",
"+ c #F0EEE9",
"@ c black",
"# c black",
"$ c black",
"% c black",
"& c black",
"* c black",
"= c black",
"- c black",
"; c black",
": c black",
/* pixels */
"XXXXXXXXXXXXXXXXXXXXXXXXXXXXXXXXXXXXXXXXXXXXXXXX",
"XXXXXXXXXXXXXXXXXXXXXXXXXXXXXXXXXXXXXXXXXXXXXXXX",
"XXXXXXXXXXXXXXXXXXXXXXXXXXXXXXXXXXXXXXXXXXXXXXXX",
"XXX......XXXXXX...XXXXXXXXX...............XXXXXX",
"XXX......XXXXXX...XXXXXXXXX...............XXXXXX",
"XXX......XXXXXX...XXXXXXXXX...............XXXXXX",
"XXXXXXXXXXXXXXXXXX++++++++++++XXXXXXXXX+++XXXXXX",
"XXXXXXXXXXXXXXXXXX++++++++++++XXXXXXXXX+++XXXXXX",
"XXXXXXXXXXXXXXXXXX++++++++++++XXXXXXXXX+++XXXXXX",
"XXXXXXXXXXXXXXX++++++++++++++++++XXXXXX+++XXXXXX",
"XXXXXXXXXXXXXXX++++++++++++++++++XXXXXX+++XXXXXX",
"XXXXXXXXXXXXXXX++++++++++++++++++XXXXXX+++XXXXXX",
"XXXXXXXXXXXXXXX++++++++++++++++++XXXXXX+++XXXXXX",
"XXXXXXXXXXXXXXX++++++++++++++++++XXXXXX+++XXXXXX",
"XXXXXXXXXXXXXXX++++++++++++++++++XXXXXX+++XXXXXX",
"XXXXXXXXX......+++ooo++++++ooo+++XXXXXX+++...XXX",
"XXXXXXXXX......+++ooo++++++ooo+++XXXXXX+++...XXX",
"XXXXXXXXX......+++ooo++++++ooo+++XXXXXX+++...XXX",
"XXXXXXXXXXXXXXX++++++++++++++++++XXXXXX+++XXXXXX",
"XXXXXXXXXXXXXXX++++++++++++++++++XXXXXX+++XXXXXX",
"XXXXXXXXXXXXXXX++++++++++++++++++XXXXXX+++XXXXXX",
"XXXXXXXXX++++++XXX++++++++++++XXX+++XXX+++XXXXXX",
"XXXXXXXXX++++++XXX++++++++++++XXX+++XXX+++XXXXXX",
"XXXXXXXXX++++++XXX++++++++++++XXX+++XXX+++XXXXXX",
"XXXXXX+++++++++++++++OOOOOO+++++++++XXXOOOXXXXXX",
"XXXXXX+++++++++++++++OOOOOO+++++++++XXXOOOXXXXXX",
"XXXXXX+++++++++++++++OOOOOO+++++++++XXXOOOXXXXXX",
"XXX...+++XXXXXX++++++++++++++++++......OOOXXXXXX",
"XXX...+++XXXXXX++++++++++++++++++......OOOXXXXXX",
"XXX...+++XXXXXX++++++++++++++++++......OOOXXXXXX",
"XXXXXX+++XXX...++++++++++++++++++...+++++++++XXX",
"XXXXXX+++XXX...++++++++++++++++++...+++++++++XXX",
"XXXXXX+++XXX...++++++++++++++++++...+++++++++XXX",
"XXXXXX++++++...++++++++++++++++++......+++XXXXXX",
"XXXXXX++++++...++++++++++++++++++......+++XXXXXX",
"XXXXXX++++++...++++++++++++++++++......+++XXXXXX",
"XXXXXX++++++...+++............++++++...+++XXXXXX",
"XXXXXX++++++...+++............++++++...+++XXXXXX",
"XXXXXX++++++...+++............++++++...+++XXXXXX",
"XXX............+++............+++.........XXXXXX",
"XXX............+++............+++.........XXXXXX",
"XXX............+++............+++.........XXXXXX",
"XXXXXXXXXXXX...+++............+++...XXXXXXXXXXXX",
"XXXXXXXXXXXX...+++............+++...XXXXXXXXXXXX",
"XXXXXXXXXXXX...+++............+++...XXXXXXXXXXXX",
"XXXXXXXXXXXXXXXXXX............XXXXXXXXXXXXXXXXXX",
"XXXXXXXXXXXXXXXXXX............XXXXXXXXXXXXXXXXXX",
"XXXXXXXXXXXXXXXXXX............XXXXXXXXXXXXXXXXXX"
};
