/* XPM */
static char *player2x3_06[] = {
/* columns rows colors chars-per-pixel */
"48 48 16 1 ",
"  c #FF04FF",
". c #332C2C",
"X c #413737",
"o c #57514E",
"O c #A09A8E",
"+ c #F0EEE9",
"@ c black",
"# c black",
"$ c black",
"% c black",
"& c black",
"* c black",
"= c black",
"- c black",
"; c black",
": c black",
/* pixels */
"XXXXXXXXXXXXXXXXXXXXXXXXXXXXXXXXXXXXXXXXXXXXXXXX",
"XXXXXXXXXXXXXXXXXXXXXXXXXXXXXXXXXXXXXXXXXXXXXXXX",
"XXXXXXXXXXXXXXXXXXXXXXXXXXXXXXXXXXXXXXXXXXXXXXXX",
"XXX......XXXXXX...++++++++++++............XXXXXX",
"XXX......XXXXXX...++++++++++++............XXXXXX",
"XXX......XXXXXX...++++++++++++............XXXXXX",
"XXXXXXXXXXXXXXX++++++++++++++++++XXXXXXXXXXXXXXX",
"XXXXXXXXXXXXXXX++++++++++++++++++XXXXXXXXXXXXXXX",
"XXXXXXXXXXXXXXX++++++++++++++++++XXXXXXXXXXXXXXX",
"XXXXXXXXXXXXXXX++++++++++++++++++XXXXXX+++XXXXXX",
"XXXXXXXXXXXXXXX++++++++++++++++++XXXXXX+++XXXXXX",
"XXXXXXXXXXXXXXX++++++++++++++++++XXXXXX+++XXXXXX",
"XXXXXXXXXXXXXXX+++ooo++++++ooo+++XXXXXX+++XXXXXX",
"XXXXXXXXXXXXXXX+++ooo++++++ooo+++XXXXXX+++XXXXXX",
"XXXXXXXXXXXXXXX+++ooo++++++ooo+++XXXXXX+++XXXXXX",
"XXXXXXXXX......++++++++++++++++++XXXXXX+++...XXX",
"XXXXXXXXX......++++++++++++++++++XXXXXX+++...XXX",
"XXXXXXXXX......++++++++++++++++++XXXXXX+++...XXX",
"XXXXXXXXXXXXXXXXXX++++++++++++XXXXXXXXX+++XXXXXX",
"XXXXXXXXXXXXXXXXXX++++++++++++XXXXXXXXX+++XXXXXX",
"XXXXXXXXXXXXXXXXXX++++++++++++XXXXXXXXX+++XXXXXX",
"XXXXXXXXXXXXXXXXXXXXXooooooXXXXXXXXXXXX+++XXXXXX",
"XXXXXXXXXXXXXXXXXXXXXooooooXXXXXXXXXXXX+++XXXXXX",
"XXXXXXXXXXXXXXXXXXXXXooooooXXXXXXXXXXXX+++XXXXXX",
"XXXXXXXXX+++++++++++++++++++++++++++XXX+++XXXXXX",
"XXXXXXXXX+++++++++++++++++++++++++++XXX+++XXXXXX",
"XXXXXXXXX+++++++++++++++++++++++++++XXX+++XXXXXX",
"XXX...++++++++++++++++++++++++++++++...OOOXXXXXX",
"XXX...++++++++++++++++++++++++++++++...OOOXXXXXX",
"XXX...++++++++++++++++++++++++++++++...OOOXXXXXX",
"XXXXXX+++XXX...++++++++++++++++++...XXXOOOXXXXXX",
"XXXXXX+++XXX...++++++++++++++++++...XXXOOOXXXXXX",
"XXXXXX+++XXX...++++++++++++++++++...XXXOOOXXXXXX",
"XXXXXX+++......++++++++++++++++++...+++++++++XXX",
"XXXXXX+++......++++++++++++++++++...+++++++++XXX",
"XXXXXX+++......++++++++++++++++++...+++++++++XXX",
"XXXXXX++++++...+++............+++......+++XXXXXX",
"XXXXXX++++++...+++............+++......+++XXXXXX",
"XXXXXX++++++...+++............+++......+++XXXXXX",
"XXX...++++++...+++............++++++...+++XXXXXX",
"XXX...++++++...+++............++++++...+++XXXXXX",
"XXX...++++++...+++............++++++...+++XXXXXX",
"XXXXXXXXXXXX...+++............+++...XXXXXXXXXXXX",
"XXXXXXXXXXXX...+++............+++...XXXXXXXXXXXX",
"XXXXXXXXXXXX...+++............+++...XXXXXXXXXXXX",
"XXXXXXXXXXXXXXXXXX............XXXXXXXXXXXXXXXXXX",
"XXXXXXXXXXXXXXXXXX............XXXXXXXXXXXXXXXXXX",
"XXXXXXXXXXXXXXXXXX............XXXXXXXXXXXXXXXXXX"
};
