/* XPM */
static char *player1x3_06[] = {
/* columns rows colors chars-per-pixel */
"48 48 16 1 ",
"  c #FF04FF",
". c #332C2C",
"X c #413737",
"o c #57514E",
"O c #A09A8E",
"+ c #F0EEE9",
"@ c black",
"# c black",
"$ c black",
"% c black",
"& c black",
"* c black",
"= c black",
"- c black",
"; c black",
": c black",
/* pixels */
"XXXXXXXXXXXXXXXXXXXXXXXXXXXXXXXXXXXXXXXXXXXXXXXX",
"XXXXXXXXXXXXXXXXXXXXXXXXXXXXXXXXXXXXXXXXXXXXXXXX",
"XXXXXXXXXXXXXXXXXXXXXXXXXXXXXXXXXXXXXXXXXXXXXXXX",
"XXX......XXXXXX...++++++++++++............XXXXXX",
"XXX......XXXXXX...++++++++++++............XXXXXX",
"XXX......XXXXXX...++++++++++++............XXXXXX",
"XXXXXXXXXXXXXXX++++++++++++++++++XXXXXXXXXXXXXXX",
"XXXXXXXXXXXXXXX++++++++++++++++++XXXXXXXXXXXXXXX",
"XXXXXXXXXXXXXXX++++++++++++++++++XXXXXXXXXXXXXXX",
"XXXXXXXXXXXXXXX++++++++++++++++++XXXXXXXXXXXXXXX",
"XXXXXXXXXXXXXXX++++++++++++++++++XXXXXXXXXXXXXXX",
"XXXXXXXXXXXXXXX++++++++++++++++++XXXXXXXXXXXXXXX",
"XXXXXXXXXXXXXXX+++ooo++++++ooo+++XXXXXXXXXXXXXXX",
"XXXXXXXXXXXXXXX+++ooo++++++ooo+++XXXXXXXXXXXXXXX",
"XXXXXXXXXXXXXXX+++ooo++++++ooo+++XXXXXXXXXXXXXXX",
"XXXXXXXXX......++++++++++++++++++XXXXXX......XXX",
"XXXXXXXXX......++++++++++++++++++XXXXXX......XXX",
"XXXXXXXXX......++++++++++++++++++XXXXXX......XXX",
"XXXXXXXXXXXXXXXXXX++++++++++++XXXXXXXXXXXXXXXXXX",
"XXXXXXXXXXXXXXXXXX++++++++++++XXXXXXXXXXXXXXXXXX",
"XXXXXXXXXXXXXXXXXX++++++++++++XXXXXXXXXXXXXXXXXX",
"XXXXXXXXXXXXXXXXXXXXXooooooXXXXXXXXXXXXXXXXXXXXX",
"XXXXXXXXXXXXXXXXXXXXXooooooXXXXXXXXXXXXXXXXXXXXX",
"XXXXXXXXXXXXXXXXXXXXXooooooXXXXXXXXXXXXXXXXXXXXX",
"XXXXXXXXX++++++++++++++++++++++++++++++XXXXXXXXX",
"XXXXXXXXX++++++++++++++++++++++++++++++XXXXXXXXX",
"XXXXXXXXX++++++++++++++++++++++++++++++XXXXXXXXX",
"XXX...++++++++++++++++++++++++++++++++++++XXXXXX",
"XXX...++++++++++++++++++++++++++++++++++++XXXXXX",
"XXX...++++++++++++++++++++++++++++++++++++XXXXXX",
"XXXXXX+++XXX...++++++++++++++++++...XXX+++XXXXXX",
"XXXXXX+++XXX...++++++++++++++++++...XXX+++XXXXXX",
"XXXXXX+++XXX...++++++++++++++++++...XXX+++XXXXXX",
"XXXXXX+++......++++++++++++++++++......+++XXXXXX",
"XXXXXX+++......++++++++++++++++++......+++XXXXXX",
"XXXXXX+++......++++++++++++++++++......+++XXXXXX",
"XXXXXX++++++...+++............+++...++++++XXXXXX",
"XXXXXX++++++...+++............+++...++++++XXXXXX",
"XXXXXX++++++...+++............+++...++++++XXXXXX",
"XXX...++++++...+++............+++...++++++XXXXXX",
"XXX...++++++...+++............+++...++++++XXXXXX",
"XXX...++++++...+++............+++...++++++XXXXXX",
"XXXXXXXXXXXX...+++............+++...XXXXXXXXXXXX",
"XXXXXXXXXXXX...+++............+++...XXXXXXXXXXXX",
"XXXXXXXXXXXX...+++............+++...XXXXXXXXXXXX",
"XXXXXXXXXXXXXXXXXX............XXXXXXXXXXXXXXXXXX",
"XXXXXXXXXXXXXXXXXX............XXXXXXXXXXXXXXXXXX",
"XXXXXXXXXXXXXXXXXX............XXXXXXXXXXXXXXXXXX"
};
