/* XPM */
static char *wall2x3_02[] = {
/* columns rows colors chars-per-pixel */
"48 48 16 1 ",
"  c #FF04FF",
". c #332C2C",
"X c #413737",
"o c #57514E",
"O c #A09A8E",
"+ c #F0EEE9",
"@ c black",
"# c black",
"$ c black",
"% c black",
"& c black",
"* c black",
"= c black",
"- c black",
"; c black",
": c black",
/* pixels */
"XXXXXXXXXXXXXXXXXXXXXXXXXXXXXXXXXXXXXXXXXXXXXXXX",
"XXXXXXXXXXXXXXXXXXXXXXXXXXXXXXXXXXXXXXXXXXXXXXXX",
"XXXXXXXXXXXXXXXXXXXXXXXXXXXXXXXXXXXXXXXXXXXXXXXX",
"XXX+++++++++++++++XXX++++++XXXXXX+++XXX++++++XXX",
"XXX+++++++++++++++XXX++++++XXXXXX+++XXX++++++XXX",
"XXX+++++++++++++++XXX++++++XXXXXX+++XXX++++++XXX",
"XXX+++++++++++++++XXX++++++XXX+++XXX+++XXX+++XXX",
"XXX+++++++++++++++XXX++++++XXX+++XXX+++XXX+++XXX",
"XXX+++++++++++++++XXX++++++XXX+++XXX+++XXX+++XXX",
"XXXXXXXXXXXXXXXXXXXXXXXXXXXXXXXXXXXXXXXXXXXXXXXX",
"XXXXXXXXXXXXXXXXXXXXXXXXXXXXXXXXXXXXXXXXXXXXXXXX",
"XXXXXXXXXXXXXXXXXXXXXXXXXXXXXXXXXXXXXXXXXXXXXXXX",
"XXXXXXOOOOOOOOOXXXXXXXXXXXXXXXooooooXXXOOOOOOXXX",
"XXXXXXOOOOOOOOOXXXXXXXXXXXXXXXooooooXXXOOOOOOXXX",
"XXXXXXOOOOOOOOOXXXXXXXXXXXXXXXooooooXXXOOOOOOXXX",
"XXXXXXOOOOOOOOOXXXXXXXXXOOOoooooooooXXXOOOOOOXXX",
"XXXXXXOOOOOOOOOXXXXXXXXXOOOoooooooooXXXOOOOOOXXX",
"XXXXXXOOOOOOOOOXXXXXXXXXOOOoooooooooXXXOOOOOOXXX",
"XXXXXXXXXXXXXXXXXXXXXOOOOOOXXXXXXXXXXXXXXXXXXXXX",
"XXXXXXXXXXXXXXXXXXXXXOOOOOOXXXXXXXXXXXXXXXXXXXXX",
"XXXXXXXXXXXXXXXXXXXXXOOOOOOXXXXXXXXXXXXXXXXXXXXX",
"XXXoooOOOOOOXXXXXXXXXOOOOOOXXXooooooOOOOOOXXXXXX",
"XXXoooOOOOOOXXXXXXXXXOOOOOOXXXooooooOOOOOOXXXXXX",
"XXXoooOOOOOOXXXXXXXXXOOOOOOXXXooooooOOOOOOXXXXXX",
"XXXoooOOOOOOXXXXXXXXXOOOOOOXXXooooooOOOOOOXXXXXX",
"XXXoooOOOOOOXXXXXXXXXOOOOOOXXXooooooOOOOOOXXXXXX",
"XXXoooOOOOOOXXXXXXXXXOOOOOOXXXooooooOOOOOOXXXXXX",
"XXXXXXXXXXXXXXXXXXXXXOOOOOOXXXXXXXXXXXXXXXXXXXXX",
"XXXXXXXXXXXXXXXXXXXXXOOOOOOXXXXXXXXXXXXXXXXXXXXX",
"XXXXXXXXXXXXXXXXXXXXXOOOOOOXXXXXXXXXXXXXXXXXXXXX",
"XXXXXXOOOOOOXXXoooXXXOOOOOOXXXXXXXXXOOOOOOXXXXXX",
"XXXXXXOOOOOOXXXoooXXXOOOOOOXXXXXXXXXOOOOOOXXXXXX",
"XXXXXXOOOOOOXXXoooXXXOOOOOOXXXXXXXXXOOOOOOXXXXXX",
"XXXoooOOOOOOXXXoooXXXOOOOOOXXXXXXoooOOOOOOOOOXXX",
"XXXoooOOOOOOXXXoooXXXOOOOOOXXXXXXoooOOOOOOOOOXXX",
"XXXoooOOOOOOXXXoooXXXOOOOOOXXXXXXoooOOOOOOOOOXXX",
"XXXXXXXXXXXXXXXXXXXXXXXXXXXXXXXXXXXXXXXXXXXXXXXX",
"XXXXXXXXXXXXXXXXXXXXXXXXXXXXXXXXXXXXXXXXXXXXXXXX",
"XXXXXXXXXXXXXXXXXXXXXXXXXXXXXXXXXXXXXXXXXXXXXXXX",
"XXX+++++++++++++++XXX++++++XXXXXX+++XXX++++++XXX",
"XXX+++++++++++++++XXX++++++XXXXXX+++XXX++++++XXX",
"XXX+++++++++++++++XXX++++++XXXXXX+++XXX++++++XXX",
"XXX+++++++++++++++XXX++++++XXX+++XXX+++XXX+++XXX",
"XXX+++++++++++++++XXX++++++XXX+++XXX+++XXX+++XXX",
"XXX+++++++++++++++XXX++++++XXX+++XXX+++XXX+++XXX",
"XXXXXXXXXXXXXXXXXXXXXXXXXXXXXXXXXXXXXXXXXXXXXXXX",
"XXXXXXXXXXXXXXXXXXXXXXXXXXXXXXXXXXXXXXXXXXXXXXXX",
"XXXXXXXXXXXXXXXXXXXXXXXXXXXXXXXXXXXXXXXXXXXXXXXX"
};
