/* XPM */
static char *wall2x3_06[] = {
/* columns rows colors chars-per-pixel */
"48 48 16 1 ",
"  c #FF04FF",
". c #332C2C",
"X c #413737",
"o c #57514E",
"O c #A09A8E",
"+ c #F0EEE9",
"@ c black",
"# c black",
"$ c black",
"% c black",
"& c black",
"* c black",
"= c black",
"- c black",
"; c black",
": c black",
/* pixels */
"XXXXXXXXXXXXXXXXXXXXXXXXXXXXXXXXXXXXXXXXXXXXXXXX",
"XXXXXXXXXXXXXXXXXXXXXXXXXXXXXXXXXXXXXXXXXXXXXXXX",
"XXXXXXXXXXXXXXXXXXXXXXXXXXXXXXXXXXXXXXXXXXXXXXXX",
"XXX+++++++++++++++XXX++++++XXXXXX+++XXX++++++XXX",
"XXX+++++++++++++++XXX++++++XXXXXX+++XXX++++++XXX",
"XXX+++++++++++++++XXX++++++XXXXXX+++XXX++++++XXX",
"XXX+++++++++++++++XXX++++++XXX+++XXX+++XXX+++XXX",
"XXX+++++++++++++++XXX++++++XXX+++XXX+++XXX+++XXX",
"XXX+++++++++++++++XXX++++++XXX+++XXX+++XXX+++XXX",
"XXXXXXXXXXXXXXXXXXXXXXXXXXXXXXXXXXXXXXXXXXXXXXXX",
"XXXXXXXXXXXXXXXXXXXXXXXXXXXXXXXXXXXXXXXXXXXXXXXX",
"XXXXXXXXXXXXXXXXXXXXXXXXXXXXXXXXXXXXXXXXXXXXXXXX",
"XXXOOOOOOXXXXXXooooooOOOOOOXXXooooooXXXOOOOOOXXX",
"XXXOOOOOOXXXXXXooooooOOOOOOXXXooooooXXXOOOOOOXXX",
"XXXOOOOOOXXXXXXooooooOOOOOOXXXooooooXXXOOOOOOXXX",
"XXXXXXOOOXXXXXXoooXXXOOOOOOXXXooooooXXXOOOOOOXXX",
"XXXXXXOOOXXXXXXoooXXXOOOOOOXXXooooooXXXOOOOOOXXX",
"XXXXXXOOOXXXXXXoooXXXOOOOOOXXXooooooXXXOOOOOOXXX",
"XXXXXXOOOXXXXXXXXXXXXXXXXXXXXXXXXXXXXXXXXXXXXXXX",
"XXXXXXOOOXXXXXXXXXXXXXXXXXXXXXXXXXXXXXXXXXXXXXXX",
"XXXXXXOOOXXXXXXXXXXXXXXXXXXXXXXXXXXXXXXXXXXXXXXX",
"XXXXXXOOOXXXoooXXXXXXOOOOOOXXXooooooXXXXXXOOOXXX",
"XXXXXXOOOXXXoooXXXXXXOOOOOOXXXooooooXXXXXXOOOXXX",
"XXXXXXOOOXXXoooXXXXXXOOOOOOXXXooooooXXXXXXOOOXXX",
"XXXXXXOOOXXXXXXoooXXXOOOOOOXXXoooXXXXXXOOOOOOXXX",
"XXXXXXOOOXXXXXXoooXXXOOOOOOXXXoooXXXXXXOOOOOOXXX",
"XXXXXXOOOXXXXXXoooXXXOOOOOOXXXoooXXXXXXOOOOOOXXX",
"XXXXXXOOOXXXXXXXXXXXXOOOOOOXXXXXXXXXXXXOOOOOOXXX",
"XXXXXXOOOXXXXXXXXXXXXOOOOOOXXXXXXXXXXXXOOOOOOXXX",
"XXXXXXOOOXXXXXXXXXXXXOOOOOOXXXXXXXXXXXXOOOOOOXXX",
"XXXOOOOOOXXXoooooooooOOOOOOXXXooooooXXXOOOOOOXXX",
"XXXOOOOOOXXXoooooooooOOOOOOXXXooooooXXXOOOOOOXXX",
"XXXOOOOOOXXXoooooooooOOOOOOXXXooooooXXXOOOOOOXXX",
"XXXOOOOOOXXXooooooXXXOOOOOOXXXXXXoooXXXOOOOOOXXX",
"XXXOOOOOOXXXooooooXXXOOOOOOXXXXXXoooXXXOOOOOOXXX",
"XXXOOOOOOXXXooooooXXXOOOOOOXXXXXXoooXXXOOOOOOXXX",
"XXXXXXXXXXXXXXXXXXXXXXXXXXXXXXXXXXXXXXXXXXXXXXXX",
"XXXXXXXXXXXXXXXXXXXXXXXXXXXXXXXXXXXXXXXXXXXXXXXX",
"XXXXXXXXXXXXXXXXXXXXXXXXXXXXXXXXXXXXXXXXXXXXXXXX",
"XXX+++++++++XXX+++XXX++++++XXX+++++++++++++++XXX",
"XXX+++++++++XXX+++XXX++++++XXX+++++++++++++++XXX",
"XXX+++++++++XXX+++XXX++++++XXX+++++++++++++++XXX",
"XXX+++++++++++++++XXX++++++XXX+++++++++XXX+++XXX",
"XXX+++++++++++++++XXX++++++XXX+++++++++XXX+++XXX",
"XXX+++++++++++++++XXX++++++XXX+++++++++XXX+++XXX",
"XXXXXXXXXXXXXXXXXXXXXXXXXXXXXXXXXXXXXXXXXXXXXXXX",
"XXXXXXXXXXXXXXXXXXXXXXXXXXXXXXXXXXXXXXXXXXXXXXXX",
"XXXXXXXXXXXXXXXXXXXXXXXXXXXXXXXXXXXXXXXXXXXXXXXX"
};
