/* XPM */
static char *coin1x3_05[] = {
/* columns rows colors chars-per-pixel */
"48 48 3 1 ",
"  c #444C5E",
". c #B4BDD0",
"X c #F9FAFB",
/* pixels */
"                                                ",
"                                                ",
"                                                ",
"                                                ",
"                                                ",
"                                                ",
"                                                ",
"                                                ",
"                                                ",
"                                                ",
"                                                ",
"                                                ",
"                  XXXXXXXXXXXX                  ",
"                  XXXXXXXXXXXX                  ",
"                  XXXXXXXXXXXX                  ",
"               XXXXXX         XXX               ",
"               XXXXXX         XXX               ",
"               XXXXXX         XXX               ",
"               XXXXXX   ...   XXX               ",
"               XXXXXX   ...   XXX               ",
"               XXXXXX   ...   XXX               ",
"               XXXXXX   ...   XXX               ",
"               XXXXXX   ...   XXX               ",
"               XXXXXX   ...   XXX               ",
"               XXXXXX         XXX               ",
"               XXXXXX         XXX               ",
"               XXXXXX         XXX               ",
"                  XXXXXXXXXXXX                  ",
"                  XXXXXXXXXXXX                  ",
"                  XXXXXXXXXXXX                  ",
"                                                ",
"                                                ",
"                                                ",
"                                                ",
"                                                ",
"                                                ",
"                                                ",
"                                                ",
"                                                ",
"                                                ",
"                                                ",
"                                                ",
"                                                ",
"                                                ",
"                                                ",
"                                                ",
"                                                ",
"                                                "
};
