/* XPM */
static char *coin1x3_00[] = {
/* columns rows colors chars-per-pixel */
"48 48 16 1 ",
"  c #FF04FF",
". c #332C2C",
"X c #413737",
"o c #57514E",
"O c #A09A8E",
"+ c #F0EEE9",
"@ c black",
"# c black",
"$ c black",
"% c black",
"& c black",
"* c black",
"= c black",
"- c black",
"; c black",
": c black",
/* pixels */
"XXXXXXXXXXXXXXXXXXXXXXXXXXXXXXXXXXXXXXXXXXXXXXXX",
"XXXXXXXXXXXXXXXXXXXXXXXXXXXXXXXXXXXXXXXXXXXXXXXX",
"XXXXXXXXXXXXXXXXXXXXXXXXXXXXXXXXXXXXXXXXXXXXXXXX",
"XXX......XXXXXX...XXXXXXXXX...............XXXXXX",
"XXX......XXXXXX...XXXXXXXXX...............XXXXXX",
"XXX......XXXXXX...XXXXXXXXX...............XXXXXX",
"XXXXXXXXXXXXXXXXXXXXXXXXXXXXXXXXXXXXXXXXXXXXXXXX",
"XXXXXXXXXXXXXXXXXXXXXXXXXXXXXXXXXXXXXXXXXXXXXXXX",
"XXXXXXXXXXXXXXXXXXXXXXXXXXXXXXXXXXXXXXXXXXXXXXXX",
"XXXXXXXXXXXXXXXXXXXXXXXXXXXXXXXXXXXXXXXXXXXXXXXX",
"XXXXXXXXXXXXXXXXXXXXXXXXXXXXXXXXXXXXXXXXXXXXXXXX",
"XXXXXXXXXXXXXXXXXXXXXXXXXXXXXXXXXXXXXXXXXXXXXXXX",
"XXXXXXXXXXXXXXXXXX++++++++++++XXXXXXXXXXXXXXXXXX",
"XXXXXXXXXXXXXXXXXX++++++++++++XXXXXXXXXXXXXXXXXX",
"XXXXXXXXXXXXXXXXXX++++++++++++XXXXXXXXXXXXXXXXXX",
"XXXXXXXXX......+++XXXXXXXXX++++++XXXXXX......XXX",
"XXXXXXXXX......+++XXXXXXXXX++++++XXXXXX......XXX",
"XXXXXXXXX......+++XXXXXXXXX++++++XXXXXX......XXX",
"XXXXXXXXXXXXXXX+++XXXOOOXXX++++++XXXXXXXXXXXXXXX",
"XXXXXXXXXXXXXXX+++XXXOOOXXX++++++XXXXXXXXXXXXXXX",
"XXXXXXXXXXXXXXX+++XXXOOOXXX++++++XXXXXXXXXXXXXXX",
"XXXXXXXXXXXXXXX+++XXXOOOXXX++++++XXXXXXXXXXXXXXX",
"XXXXXXXXXXXXXXX+++XXXOOOXXX++++++XXXXXXXXXXXXXXX",
"XXXXXXXXXXXXXXX+++XXXOOOXXX++++++XXXXXXXXXXXXXXX",
"XXXXXXXXXXXXXXX+++XXXXXXXXX++++++XXXXXXXXXXXXXXX",
"XXXXXXXXXXXXXXX+++XXXXXXXXX++++++XXXXXXXXXXXXXXX",
"XXXXXXXXXXXXXXX+++XXXXXXXXX++++++XXXXXXXXXXXXXXX",
"XXX......XXXXXXXXX++++++++++++.........XXXXXXXXX",
"XXX......XXXXXXXXX++++++++++++.........XXXXXXXXX",
"XXX......XXXXXXXXX++++++++++++.........XXXXXXXXX",
"XXXXXXXXXXXX........................XXXXXXXXXXXX",
"XXXXXXXXXXXX........................XXXXXXXXXXXX",
"XXXXXXXXXXXX........................XXXXXXXXXXXX",
"XXXXXXXXX..............................XXXXXXXXX",
"XXXXXXXXX..............................XXXXXXXXX",
"XXXXXXXXX..............................XXXXXXXXX",
"XXXXXXXXX..............................XXXXXXXXX",
"XXXXXXXXX..............................XXXXXXXXX",
"XXXXXXXXX..............................XXXXXXXXX",
"XXX.......................................XXXXXX",
"XXX.......................................XXXXXX",
"XXX.......................................XXXXXX",
"XXXXXXXXXXXX........................XXXXXXXXXXXX",
"XXXXXXXXXXXX........................XXXXXXXXXXXX",
"XXXXXXXXXXXX........................XXXXXXXXXXXX",
"XXXXXXXXXXXXXXXXXX............XXXXXXXXXXXXXXXXXX",
"XXXXXXXXXXXXXXXXXX............XXXXXXXXXXXXXXXXXX",
"XXXXXXXXXXXXXXXXXX............XXXXXXXXXXXXXXXXXX"
};
