/* XPM */
static char *door1x3[] = {
/* columns rows colors chars-per-pixel */
"48 48 3 1 ",
"  c #444C5E",
". c #65718B",
"X c #F9FAFB",
/* pixels */
"                                                ",
"                                                ",
"                                                ",
"      XXXXXXXXXXXXXXXXXXXXXXXXXXXXXXXXXXXX      ",
"      XXXXXXXXXXXXXXXXXXXXXXXXXXXXXXXXXXXX      ",
"      XXXXXXXXXXXXXXXXXXXXXXXXXXXXXXXXXXXX      ",
"   XXX   ..............................   XXX   ",
"   XXX   ..............................   XXX   ",
"   XXX   ..............................   XXX   ",
"   XXX...XXXXXXXXXXXXXXXXXXXXXXXXXXXXXX...XXX   ",
"   XXX...XXXXXXXXXXXXXXXXXXXXXXXXXXXXXX...XXX   ",
"   XXX...XXXXXXXXXXXXXXXXXXXXXXXXXXXXXX...XXX   ",
"   XXX...XXXXXXXXXXXXXXXXXXXXXXXXXXXXXX...XXX   ",
"   XXX...XXXXXXXXXXXXXXXXXXXXXXXXXXXXXX...XXX   ",
"   XXX...XXXXXXXXXXXXXXXXXXXXXXXXXXXXXX...XXX   ",
"   XXX...XXXXXXXXXXXX      XXXXXXXXXXXX...XXX   ",
"   XXX...XXXXXXXXXXXX      XXXXXXXXXXXX...XXX   ",
"   XXX...XXXXXXXXXXXX      XXXXXXXXXXXX...XXX   ",
"   XXX...XXXXXXXXX            XXXXXXXXX...XXX   ",
"   XXX...XXXXXXXXX            XXXXXXXXX...XXX   ",
"   XXX...XXXXXXXXX            XXXXXXXXX...XXX   ",
"   XXX...XXXXXXXXX            XXXXXXXXX...XXX   ",
"   XXX...XXXXXXXXX            XXXXXXXXX...XXX   ",
"   XXX...XXXXXXXXX            XXXXXXXXX...XXX   ",
"   XXX...XXXXXXXXXXXX      XXXXXXXXXXXX...XXX   ",
"   XXX...XXXXXXXXXXXX      XXXXXXXXXXXX...XXX   ",
"   XXX...XXXXXXXXXXXX      XXXXXXXXXXXX...XXX   ",
"   XXX...XXXXXXXXXXXX      XXXXXXXXXXXX...XXX   ",
"   XXX...XXXXXXXXXXXX      XXXXXXXXXXXX...XXX   ",
"   XXX...XXXXXXXXXXXX      XXXXXXXXXXXX...XXX   ",
"   XXX...XXXXXXXXXXXX      XXXXXXXXXXXX...XXX   ",
"   XXX...XXXXXXXXXXXX      XXXXXXXXXXXX...XXX   ",
"   XXX...XXXXXXXXXXXX      XXXXXXXXXXXX...XXX   ",
"   XXX...XXXXXXXXXXXXXXXXXXXXXXXXXXXXXX...XXX   ",
"   XXX...XXXXXXXXXXXXXXXXXXXXXXXXXXXXXX...XXX   ",
"   XXX...XXXXXXXXXXXXXXXXXXXXXXXXXXXXXX...XXX   ",
"   XXX...XXXXXXXXXXXXXXXXXXXXXXXXXXXXXX...XXX   ",
"   XXX...XXXXXXXXXXXXXXXXXXXXXXXXXXXXXX...XXX   ",
"   XXX...XXXXXXXXXXXXXXXXXXXXXXXXXXXXXX...XXX   ",
"   XXX   ..............................   XXX   ",
"   XXX   ..............................   XXX   ",
"   XXX   ..............................   XXX   ",
"      XXXXXXXXXXXXXXXXXXXXXXXXXXXXXXXXXXXX      ",
"      XXXXXXXXXXXXXXXXXXXXXXXXXXXXXXXXXXXX      ",
"      XXXXXXXXXXXXXXXXXXXXXXXXXXXXXXXXXXXX      ",
"                                                ",
"                                                ",
"                                                "
};
