/* XPM */
static char *enemy2x3_04[] = {
/* columns rows colors chars-per-pixel */
"48 48 4 1 ",
"  c #444C5E",
". c #65718B",
"X c #B4BDD0",
"o c #F9FAFB",
/* pixels */
"                                                ",
"                                                ",
"                                                ",
"                                                ",
"                                                ",
"                                                ",
"                                                ",
"                                                ",
"                                                ",
"                                                ",
"                                                ",
"                                                ",
"                  ooo      ooo                  ",
"                  ooo      ooo                  ",
"                  ooo      ooo                  ",
"                  oooooooooooo                  ",
"                  oooooooooooo                  ",
"                  oooooooooooo                  ",
"         ooo      oooooooooooo      ooo         ",
"         ooo      oooooooooooo      ooo         ",
"         ooo      oooooooooooo      ooo         ",
"      oooooooooXXX...oooooo...XXXooooooooo      ",
"      oooooooooXXX...oooooo...XXXooooooooo      ",
"      oooooooooXXX...oooooo...XXXooooooooo      ",
"   oooooooooooooooooooooooooooooooooooooooooo   ",
"   oooooooooooooooooooooooooooooooooooooooooo   ",
"   oooooooooooooooooooooooooooooooooooooooooo   ",
"   oooooooooooooooooooooooooooooooooooooooooo   ",
"   oooooooooooooooooooooooooooooooooooooooooo   ",
"   oooooooooooooooooooooooooooooooooooooooooo   ",
"   oooooo         oooooooooooo         oooooo   ",
"   oooooo         oooooooooooo         oooooo   ",
"   oooooo         oooooooooooo         oooooo   ",
"                  ooo      ooo                  ",
"                  ooo      ooo                  ",
"                  ooo      ooo                  ",
"                                                ",
"                                                ",
"                                                ",
"                                                ",
"                                                ",
"                                                ",
"                                                ",
"                                                ",
"                                                ",
"                                                ",
"                                                ",
"                                                "
};
