/* XPM */
static char *enemy2x3_03[] = {
/* columns rows colors chars-per-pixel */
"48 48 3 1 ",
"  c #444C5E",
". c #B4BDD0",
"X c #F9FAFB",
/* pixels */
"                                                ",
"                                                ",
"                                                ",
"                                                ",
"                                                ",
"                                                ",
"                                                ",
"                                                ",
"                                                ",
"                                                ",
"                                                ",
"                                                ",
"                                                ",
"                                                ",
"                                                ",
"                  XXX      XXX                  ",
"                  XXX      XXX                  ",
"                  XXX      XXX                  ",
"         XXX      XXXXXXXXXXXX      XXX         ",
"         XXX      XXXXXXXXXXXX      XXX         ",
"         XXX      XXXXXXXXXXXX      XXX         ",
"      XXXXXX......XXXXXXXXXXXX......XXXXXX      ",
"      XXXXXX......XXXXXXXXXXXX......XXXXXX      ",
"      XXXXXX......XXXXXXXXXXXX......XXXXXX      ",
"      XXXXXXXXX...   XXXXXX   ...XXXXXXXXX      ",
"      XXXXXXXXX...   XXXXXX   ...XXXXXXXXX      ",
"      XXXXXXXXX...   XXXXXX   ...XXXXXXXXX      ",
"      XXXXXXXXXXXXXXXXXXXXXXXXXXXXXXXXXXXX      ",
"      XXXXXXXXXXXXXXXXXXXXXXXXXXXXXXXXXXXX      ",
"      XXXXXXXXXXXXXXXXXXXXXXXXXXXXXXXXXXXX      ",
"      XXXXXXXXXXXXXXXXXXXXXXXXXXXXXXXXXXXX      ",
"      XXXXXXXXXXXXXXXXXXXXXXXXXXXXXXXXXXXX      ",
"      XXXXXXXXXXXXXXXXXXXXXXXXXXXXXXXXXXXX      ",
"                  XXXXXXXXXXXX                  ",
"                  XXXXXXXXXXXX                  ",
"                  XXXXXXXXXXXX                  ",
"                  XXX      XXX                  ",
"                  XXX      XXX                  ",
"                  XXX      XXX                  ",
"                                                ",
"                                                ",
"                                                ",
"                                                ",
"                                                ",
"                                                ",
"                                                ",
"                                                ",
"                                                "
};
