/* XPM */
static char *enemy1x3_04[] = {
/* columns rows colors chars-per-pixel */
"48 48 16 1 ",
"  c #FF04FF",
". c #332C2C",
"X c #413737",
"o c #57514E",
"O c #A09A8E",
"+ c #F0EEE9",
"@ c black",
"# c black",
"$ c black",
"% c black",
"& c black",
"* c black",
"= c black",
"- c black",
"; c black",
": c black",
/* pixels */
"XXXXXXXXXXXXXXXXXXXXXXXXXXXXXXXXXXXXXXXXXXXXXXXX",
"XXXXXXXXXXXXXXXXXXXXXXXXXXXXXXXXXXXXXXXXXXXXXXXX",
"XXXXXXXXXXXXXXXXXXXXXXXXXXXXXXXXXXXXXXXXXXXXXXXX",
"XXX......XXXXXX...XXXXXXXXX...............XXXXXX",
"XXX......XXXXXX...XXXXXXXXX...............XXXXXX",
"XXX......XXXXXX...XXXXXXXXX...............XXXXXX",
"XXXXXXXXXXXXXXXXXXXXXXXXXXXXXXXXXXXXXXXXXXXXXXXX",
"XXXXXXXXXXXXXXXXXXXXXXXXXXXXXXXXXXXXXXXXXXXXXXXX",
"XXXXXXXXXXXXXXXXXXXXXXXXXXXXXXXXXXXXXXXXXXXXXXXX",
"XXXXXXXXXXXXXXXXXX++++++++++++XXXXXXXXXXXXXXXXXX",
"XXXXXXXXXXXXXXXXXX++++++++++++XXXXXXXXXXXXXXXXXX",
"XXXXXXXXXXXXXXXXXX++++++++++++XXXXXXXXXXXXXXXXXX",
"XXXXXXXXXXXXXXX++++++++++++++++++XXXXXXXXXXXXXXX",
"XXXXXXXXXXXXXXX++++++++++++++++++XXXXXXXXXXXXXXX",
"XXXXXXXXXXXXXXX++++++++++++++++++XXXXXXXXXXXXXXX",
"XXXXXXXXX......++++++++++++++++++XXXXXX......XXX",
"XXXXXXXXX......++++++++++++++++++XXXXXX......XXX",
"XXXXXXXXX......++++++++++++++++++XXXXXX......XXX",
"XXXXXXXXXXXX++++++++++++++++++++++++XXXXXXXXXXXX",
"XXXXXXXXXXXX++++++++++++++++++++++++XXXXXXXXXXXX",
"XXXXXXXXXXXX++++++++++++++++++++++++XXXXXXXXXXXX",
"XXXXXXXXXXXX++++++++++++++++++++++++XXXXXXXXXXXX",
"XXXXXXXXXXXX++++++++++++++++++++++++XXXXXXXXXXXX",
"XXXXXXXXXXXX++++++++++++++++++++++++XXXXXXXXXXXX",
"XXXXXXXXXXXX++++++ooo++++++ooo++++++XXXXXXXXXXXX",
"XXXXXXXXXXXX++++++ooo++++++ooo++++++XXXXXXXXXXXX",
"XXXXXXXXXXXX++++++ooo++++++ooo++++++XXXXXXXXXXXX",
"XXX......XXX++++++++++++++++++++++++...XXXXXXXXX",
"XXX......XXX++++++++++++++++++++++++...XXXXXXXXX",
"XXX......XXX++++++++++++++++++++++++...XXXXXXXXX",
"XXXXXXXXX++++++++++++oooooo++++++++++++XXXXXXXXX",
"XXXXXXXXX++++++++++++oooooo++++++++++++XXXXXXXXX",
"XXXXXXXXX++++++++++++oooooo++++++++++++XXXXXXXXX",
"XXXXXX++++++++++++++++++++++++++++++++++++XXXXXX",
"XXXXXX++++++++++++++++++++++++++++++++++++XXXXXX",
"XXXXXX++++++++++++++++++++++++++++++++++++XXXXXX",
"XXXXXXXXX++++++++++++++++++++++++++++++XXXXXXXXX",
"XXXXXXXXX++++++++++++++++++++++++++++++XXXXXXXXX",
"XXXXXXXXX++++++++++++++++++++++++++++++XXXXXXXXX",
"XXX...............++++++++++++............XXXXXX",
"XXX...............++++++++++++............XXXXXX",
"XXX...............++++++++++++............XXXXXX",
"XXXXXXXXXXXX........................XXXXXXXXXXXX",
"XXXXXXXXXXXX........................XXXXXXXXXXXX",
"XXXXXXXXXXXX........................XXXXXXXXXXXX",
"XXXXXXXXXXXXXXXXXX............XXXXXXXXXXXXXXXXXX",
"XXXXXXXXXXXXXXXXXX............XXXXXXXXXXXXXXXXXX",
"XXXXXXXXXXXXXXXXXX............XXXXXXXXXXXXXXXXXX"
};
