/* XPM */
static char *enemy1x3_08[] = {
/* columns rows colors chars-per-pixel */
"48 48 2 1 ",
"  c #444C5E",
". c #F9FAFB",
/* pixels */
"                                                ",
"                                                ",
"                                                ",
"                                                ",
"                                                ",
"                                                ",
"                                                ",
"                                                ",
"                                                ",
"                  ............                  ",
"                  ............                  ",
"                  ............                  ",
"               ..................               ",
"               ..................               ",
"               ..................               ",
"               ..................               ",
"               ..................               ",
"               ..................               ",
"            ........................            ",
"            ........................            ",
"            ........................            ",
"            ......   ......   ......            ",
"            ......   ......   ......            ",
"            ......   ......   ......            ",
"            ......   ......   ......            ",
"            ......   ......   ......            ",
"            ......   ......   ......            ",
"            ........................            ",
"            ........................            ",
"            ........................            ",
"      ...............      ...............      ",
"      ...............      ...............      ",
"      ...............      ...............      ",
"      ....................................      ",
"      ....................................      ",
"      ....................................      ",
"         ..............................         ",
"         ..............................         ",
"         ..............................         ",
"                  ............                  ",
"                  ............                  ",
"                  ............                  ",
"                                                ",
"                                                ",
"                                                ",
"                                                ",
"                                                ",
"                                                "
};
