/* XPM */
static char *enemy2x3_02[] = {
/* columns rows colors chars-per-pixel */
"48 48 4 1 ",
"  c #444C5E",
". c #65718B",
"X c #B4BDD0",
"o c #F9FAFB",
/* pixels */
"                                                ",
"                                                ",
"                                                ",
"                                                ",
"                                                ",
"                                                ",
"                                                ",
"                                                ",
"                                                ",
"                                                ",
"                                                ",
"                                                ",
"            ooo                  ooo            ",
"            ooo                  ooo            ",
"            ooo                  ooo            ",
"         oooooo   ooo      ooo   oooooo         ",
"         oooooo   ooo      ooo   oooooo         ",
"         oooooo   ooo      ooo   oooooo         ",
"         oooooo   oooooooooooo   oooooo         ",
"         oooooo   oooooooooooo   oooooo         ",
"         oooooo   oooooooooooo   oooooo         ",
"      oooooooooooooooooooooooooooooooooooo      ",
"      oooooooooooooooooooooooooooooooooooo      ",
"      oooooooooooooooooooooooooooooooooooo      ",
"      oooooooooooo...oooooo...oooooooooooo      ",
"      oooooooooooo...oooooo...oooooooooooo      ",
"      oooooooooooo...oooooo...oooooooooooo      ",
"         ooooooXXXooooooooooooXXXoooooo         ",
"         ooooooXXXooooooooooooXXXoooooo         ",
"         ooooooXXXooooooooooooXXXoooooo         ",
"                  oooooooooooo                  ",
"                  oooooooooooo                  ",
"                  oooooooooooo                  ",
"                  oooooooooooo                  ",
"                  oooooooooooo                  ",
"                  oooooooooooo                  ",
"                  ooo      ooo                  ",
"                  ooo      ooo                  ",
"                  ooo      ooo                  ",
"                                                ",
"                                                ",
"                                                ",
"                                                ",
"                                                ",
"                                                ",
"                                                ",
"                                                ",
"                                                "
};
