/* XPM */
static char *enemy1x3_05[] = {
/* columns rows colors chars-per-pixel */
"48 48 3 1 ",
"  c #444C5E",
". c #65718B",
"X c #F9FAFB",
/* pixels */
"                                                ",
"                                                ",
"                                                ",
"                                                ",
"                                                ",
"                                                ",
"                                                ",
"                                                ",
"                                                ",
"                  XXXXXXXXXXXX                  ",
"                  XXXXXXXXXXXX                  ",
"                  XXXXXXXXXXXX                  ",
"               XXXXXXXXXXXXXXXXXX               ",
"               XXXXXXXXXXXXXXXXXX               ",
"               XXXXXXXXXXXXXXXXXX               ",
"               XXXXXXXXXXXXXXXXXX               ",
"               XXXXXXXXXXXXXXXXXX               ",
"               XXXXXXXXXXXXXXXXXX               ",
"            XXXXXXXXXXXXXXXXXXXXXXXX            ",
"            XXXXXXXXXXXXXXXXXXXXXXXX            ",
"            XXXXXXXXXXXXXXXXXXXXXXXX            ",
"            XXXXXXXXXXXXXXXXXXXXXXXX            ",
"            XXXXXXXXXXXXXXXXXXXXXXXX            ",
"            XXXXXXXXXXXXXXXXXXXXXXXX            ",
"            XXXXXX...XXXXXX...XXXXXX            ",
"            XXXXXX...XXXXXX...XXXXXX            ",
"            XXXXXX...XXXXXX...XXXXXX            ",
"            XXXXXXXXXXXXXXXXXXXXXXXX            ",
"            XXXXXXXXXXXXXXXXXXXXXXXX            ",
"            XXXXXXXXXXXXXXXXXXXXXXXX            ",
"         XXXXXXXXXXXX......XXXXXXXXXXXX         ",
"         XXXXXXXXXXXX......XXXXXXXXXXXX         ",
"         XXXXXXXXXXXX......XXXXXXXXXXXX         ",
"      XXXXXXXXXXXXXXXXXXXXXXXXXXXXXXXXXXXX      ",
"      XXXXXXXXXXXXXXXXXXXXXXXXXXXXXXXXXXXX      ",
"      XXXXXXXXXXXXXXXXXXXXXXXXXXXXXXXXXXXX      ",
"         XXXXXXXXXXXXXXXXXXXXXXXXXXXXXX         ",
"         XXXXXXXXXXXXXXXXXXXXXXXXXXXXXX         ",
"         XXXXXXXXXXXXXXXXXXXXXXXXXXXXXX         ",
"                  XXXXXXXXXXXX                  ",
"                  XXXXXXXXXXXX                  ",
"                  XXXXXXXXXXXX                  ",
"                                                ",
"                                                ",
"                                                ",
"                                                ",
"                                                ",
"                                                "
};
