/* XPM */
static char *enemy2x3_05[] = {
/* columns rows colors chars-per-pixel */
"48 48 4 1 ",
"  c #444C5E",
". c #65718B",
"X c #B4BDD0",
"o c #F9FAFB",
/* pixels */
"                                                ",
"                                                ",
"                                                ",
"                                                ",
"                                                ",
"                                                ",
"                                                ",
"                                                ",
"                                                ",
"                                                ",
"                                                ",
"                                                ",
"                  ooo      ooo                  ",
"                  ooo      ooo                  ",
"                  ooo      ooo                  ",
"         ooo      oooooooooooo      ooo         ",
"         ooo      oooooooooooo      ooo         ",
"         ooo      oooooooooooo      ooo         ",
"      ooooooooo   oooooooooooo   ooooooooo      ",
"      ooooooooo   oooooooooooo   ooooooooo      ",
"      ooooooooo   oooooooooooo   ooooooooo      ",
"   ooooooooooooXXX...oooooo...XXXoooooooooooo   ",
"   ooooooooooooXXX...oooooo...XXXoooooooooooo   ",
"   ooooooooooooXXX...oooooo...XXXoooooooooooo   ",
"   ooooooooooooXXXooooooooooooXXXoooooooooooo   ",
"   ooooooooooooXXXooooooooooooXXXoooooooooooo   ",
"   ooooooooooooXXXooooooooooooXXXoooooooooooo   ",
"   oooooooooooo   oooooooooooo   oooooooooooo   ",
"   oooooooooooo   oooooooooooo   oooooooooooo   ",
"   oooooooooooo   oooooooooooo   oooooooooooo   ",
"   ooo            oooooooooooo            ooo   ",
"   ooo            oooooooooooo            ooo   ",
"   ooo            oooooooooooo            ooo   ",
"                  ooo      ooo                  ",
"                  ooo      ooo                  ",
"                  ooo      ooo                  ",
"                                                ",
"                                                ",
"                                                ",
"                                                ",
"                                                ",
"                                                ",
"                                                ",
"                                                ",
"                                                ",
"                                                ",
"                                                ",
"                                                "
};
