/* XPM */
static char *exit1x3[] = {
/* columns rows colors chars-per-pixel */
"48 48 4 1 ",
"  c #444C5E",
". c #65718B",
"X c #B4BDD0",
"o c #F9FAFB",
/* pixels */
"                                                ",
"                                                ",
"                                                ",
"                                                ",
"                                                ",
"                                                ",
"      oooooooooooooooooooooooooooooooooooo      ",
"      oooooooooooooooooooooooooooooooooooo      ",
"      oooooooooooooooooooooooooooooooooooo      ",
"                                       ooo      ",
"                                       ooo      ",
"                                       ooo      ",
"      oooooo                           ooo      ",
"      oooooo                           ooo      ",
"      oooooo                           ooo      ",
"      oooooo                           ooo      ",
"      oooooo                           ooo      ",
"      oooooo                           ooo      ",
"      oooooo   XXXXXX                  ooo      ",
"      oooooo   XXXXXX                  ooo      ",
"      oooooo   XXXXXX                  ooo      ",
"      oooooo   XXXXXX                  ooo      ",
"      oooooo   XXXXXX                  ooo      ",
"      oooooo   XXXXXX                  ooo      ",
"      oooooo   XXXXXX   XXXXXX         ooo      ",
"      oooooo   XXXXXX   XXXXXX         ooo      ",
"      oooooo   XXXXXX   XXXXXX         ooo      ",
"      oooooo   XXXXXX   XXXXXX         ooo      ",
"      oooooo   XXXXXX   XXXXXX         ooo      ",
"      oooooo   XXXXXX   XXXXXX         ooo      ",
"      oooooo   XXXXXX   XXXXXX   ...   ooo      ",
"      oooooo   XXXXXX   XXXXXX   ...   ooo      ",
"      oooooo   XXXXXX   XXXXXX   ...   ooo      ",
"      oooooo   XXXXXX   XXXXXX   ...   ooo      ",
"      oooooo   XXXXXX   XXXXXX   ...   ooo      ",
"      oooooo   XXXXXX   XXXXXX   ...   ooo      ",
"                                       ooo      ",
"                                       ooo      ",
"                                       ooo      ",
"      oooooooooooooooooooooooooooooooooooo      ",
"      oooooooooooooooooooooooooooooooooooo      ",
"      oooooooooooooooooooooooooooooooooooo      ",
"                                                ",
"                                                ",
"                                                ",
"                                                ",
"                                                ",
"                                                "
};
