/* XPM */
static char *player1x3_07[] = {
/* columns rows colors chars-per-pixel */
"48 48 3 1 ",
"  c #444C5E",
". c #65718B",
"X c #F9FAFB",
/* pixels */
"                                                ",
"                                                ",
"                                                ",
"                  XXXXXXXXXXXX                  ",
"                  XXXXXXXXXXXX                  ",
"                  XXXXXXXXXXXX                  ",
"               XXXXXXXXXXXXXXXXXX               ",
"               XXXXXXXXXXXXXXXXXX               ",
"               XXXXXXXXXXXXXXXXXX               ",
"               XXXXXXXXXXXXXXXXXX               ",
"               XXXXXXXXXXXXXXXXXX               ",
"               XXXXXXXXXXXXXXXXXX               ",
"               XXX...XXXXXX...XXX               ",
"               XXX...XXXXXX...XXX               ",
"               XXX...XXXXXX...XXX               ",
"               XXXXXXXXXXXXXXXXXX               ",
"               XXXXXXXXXXXXXXXXXX               ",
"               XXXXXXXXXXXXXXXXXX               ",
"                  XXXXXXXXXXXX                  ",
"                  XXXXXXXXXXXX                  ",
"                  XXXXXXXXXXXX                  ",
"                     ......                     ",
"                     ......                     ",
"                     ......                     ",
"         XXXXXXXXXXXXXXXXXXXXXXXXXXXXXX         ",
"         XXXXXXXXXXXXXXXXXXXXXXXXXXXXXX         ",
"         XXXXXXXXXXXXXXXXXXXXXXXXXXXXXX         ",
"      XXXXXXXXXXXXXXXXXXXXXXXXXXXXXXXXXXXX      ",
"      XXXXXXXXXXXXXXXXXXXXXXXXXXXXXXXXXXXX      ",
"      XXXXXXXXXXXXXXXXXXXXXXXXXXXXXXXXXXXX      ",
"      XXX      XXXXXXXXXXXXXXXXXX      XXX      ",
"      XXX      XXXXXXXXXXXXXXXXXX      XXX      ",
"      XXX      XXXXXXXXXXXXXXXXXX      XXX      ",
"      XXX      XXXXXXXXXXXXXXXXXX      XXX      ",
"      XXX      XXXXXXXXXXXXXXXXXX      XXX      ",
"      XXX      XXXXXXXXXXXXXXXXXX      XXX      ",
"      XXXXXX   XXX            XXX   XXXXXX      ",
"      XXXXXX   XXX            XXX   XXXXXX      ",
"      XXXXXX   XXX            XXX   XXXXXX      ",
"      XXXXXX   XXX            XXX   XXXXXX      ",
"      XXXXXX   XXX            XXX   XXXXXX      ",
"      XXXXXX   XXX            XXX   XXXXXX      ",
"               XXX            XXX               ",
"               XXX            XXX               ",
"               XXX            XXX               ",
"                                                ",
"                                                ",
"                                                "
};
