/* XPM */
static char *player1x3_03[] = {
/* columns rows colors chars-per-pixel */
"48 48 16 1 ",
"  c #FF04FF",
". c #332C2C",
"X c #413737",
"o c #57514E",
"O c #A09A8E",
"+ c #F0EEE9",
"@ c black",
"# c black",
"$ c black",
"% c black",
"& c black",
"* c black",
"= c black",
"- c black",
"; c black",
": c black",
/* pixels */
"XXXXXXXXXXXXXXXXXXXXXXXXXXXXXXXXXXXXXXXXXXXXXXXX",
"XXXXXXXXXXXXXXXXXXXXXXXXXXXXXXXXXXXXXXXXXXXXXXXX",
"XXXXXXXXXXXXXXXXXXXXXXXXXXXXXXXXXXXXXXXXXXXXXXXX",
"XXX......XXXXXX...XXXXXXXXX...............XXXXXX",
"XXX......XXXXXX...XXXXXXXXX...............XXXXXX",
"XXX......XXXXXX...XXXXXXXXX...............XXXXXX",
"XXXXXXXXXXXXXXXXXX++++++++++++XXXXXXXXXXXXXXXXXX",
"XXXXXXXXXXXXXXXXXX++++++++++++XXXXXXXXXXXXXXXXXX",
"XXXXXXXXXXXXXXXXXX++++++++++++XXXXXXXXXXXXXXXXXX",
"XXXXXXXXXXXXXXX++++++++++++++++++XXXXXXXXXXXXXXX",
"XXXXXXXXXXXXXXX++++++++++++++++++XXXXXXXXXXXXXXX",
"XXXXXXXXXXXXXXX++++++++++++++++++XXXXXXXXXXXXXXX",
"XXXXXXXXXXXXXXX++++++++++++++++++XXXXXXXXXXXXXXX",
"XXXXXXXXXXXXXXX++++++++++++++++++XXXXXXXXXXXXXXX",
"XXXXXXXXXXXXXXX++++++++++++++++++XXXXXXXXXXXXXXX",
"XXXXXXXXX......+++ooo++++++ooo+++XXXXXX......XXX",
"XXXXXXXXX......+++ooo++++++ooo+++XXXXXX......XXX",
"XXXXXXXXX......+++ooo++++++ooo+++XXXXXX......XXX",
"XXXXXXXXXXXXXXX++++++++++++++++++XXXXXXXXXXXXXXX",
"XXXXXXXXXXXXXXX++++++++++++++++++XXXXXXXXXXXXXXX",
"XXXXXXXXXXXXXXX++++++++++++++++++XXXXXXXXXXXXXXX",
"XXXXXXXXX++++++XXX++++++++++++XXX++++++XXXXXXXXX",
"XXXXXXXXX++++++XXX++++++++++++XXX++++++XXXXXXXXX",
"XXXXXXXXX++++++XXX++++++++++++XXX++++++XXXXXXXXX",
"XXXXXX+++++++++++++++OOOOOO+++++++++++++++XXXXXX",
"XXXXXX+++++++++++++++OOOOOO+++++++++++++++XXXXXX",
"XXXXXX+++++++++++++++OOOOOO+++++++++++++++XXXXXX",
"XXX...+++XXXXXX++++++++++++++++++......+++XXXXXX",
"XXX...+++XXXXXX++++++++++++++++++......+++XXXXXX",
"XXX...+++XXXXXX++++++++++++++++++......+++XXXXXX",
"XXXXXX+++XXX...++++++++++++++++++...XXX+++XXXXXX",
"XXXXXX+++XXX...++++++++++++++++++...XXX+++XXXXXX",
"XXXXXX+++XXX...++++++++++++++++++...XXX+++XXXXXX",
"XXXXXX++++++...++++++++++++++++++...++++++XXXXXX",
"XXXXXX++++++...++++++++++++++++++...++++++XXXXXX",
"XXXXXX++++++...++++++++++++++++++...++++++XXXXXX",
"XXXXXX++++++...+++............+++...++++++XXXXXX",
"XXXXXX++++++...+++............+++...++++++XXXXXX",
"XXXXXX++++++...+++............+++...++++++XXXXXX",
"XXX............+++............+++.........XXXXXX",
"XXX............+++............+++.........XXXXXX",
"XXX............+++............+++.........XXXXXX",
"XXXXXXXXXXXX...+++............+++...XXXXXXXXXXXX",
"XXXXXXXXXXXX...+++............+++...XXXXXXXXXXXX",
"XXXXXXXXXXXX...+++............+++...XXXXXXXXXXXX",
"XXXXXXXXXXXXXXXXXX............XXXXXXXXXXXXXXXXXX",
"XXXXXXXXXXXXXXXXXX............XXXXXXXXXXXXXXXXXX",
"XXXXXXXXXXXXXXXXXX............XXXXXXXXXXXXXXXXXX"
};
