/* XPM */
static char *player2x3_07[] = {
/* columns rows colors chars-per-pixel */
"48 48 4 1 ",
"  c #444C5E",
". c #65718B",
"X c #B4BDD0",
"o c #F9FAFB",
/* pixels */
"                                                ",
"                                                ",
"                                                ",
"                  oooooooooooo                  ",
"                  oooooooooooo                  ",
"                  oooooooooooo                  ",
"               oooooooooooooooooo               ",
"               oooooooooooooooooo               ",
"               oooooooooooooooooo               ",
"               oooooooooooooooooo      ooo      ",
"               oooooooooooooooooo      ooo      ",
"               oooooooooooooooooo      ooo      ",
"               ooo...oooooo...ooo      ooo      ",
"               ooo...oooooo...ooo      ooo      ",
"               ooo...oooooo...ooo      ooo      ",
"               oooooooooooooooooo      ooo      ",
"               oooooooooooooooooo      ooo      ",
"               oooooooooooooooooo      ooo      ",
"                  oooooooooooo         ooo      ",
"                  oooooooooooo         ooo      ",
"                  oooooooooooo         ooo      ",
"                     ......            ooo      ",
"                     ......            ooo      ",
"                     ......            ooo      ",
"         ooooooooooooooooooooooooooo   ooo      ",
"         ooooooooooooooooooooooooooo   ooo      ",
"         ooooooooooooooooooooooooooo   ooo      ",
"      oooooooooooooooooooooooooooooo   XXX      ",
"      oooooooooooooooooooooooooooooo   XXX      ",
"      oooooooooooooooooooooooooooooo   XXX      ",
"      ooo      oooooooooooooooooo      XXX      ",
"      ooo      oooooooooooooooooo      XXX      ",
"      ooo      oooooooooooooooooo      XXX      ",
"      ooo      oooooooooooooooooo   ooooooooo   ",
"      ooo      oooooooooooooooooo   ooooooooo   ",
"      ooo      oooooooooooooooooo   ooooooooo   ",
"      oooooo   ooo            ooo      ooo      ",
"      oooooo   ooo            ooo      ooo      ",
"      oooooo   ooo            ooo      ooo      ",
"      oooooo   ooo            oooooo   ooo      ",
"      oooooo   ooo            oooooo   ooo      ",
"      oooooo   ooo            oooooo   ooo      ",
"               ooo            ooo               ",
"               ooo            ooo               ",
"               ooo            ooo               ",
"                                                ",
"                                                ",
"                                                "
};
