/* XPM */
static char *player2x3_04[] = {
/* columns rows colors chars-per-pixel */
"48 48 4 1 ",
"  c #444C5E",
". c #65718B",
"X c #B4BDD0",
"o c #F9FAFB",
/* pixels */
"                                                ",
"                                                ",
"                                                ",
"                                                ",
"                                                ",
"                                                ",
"                  oooooooooooo         ooo      ",
"                  oooooooooooo         ooo      ",
"                  oooooooooooo         ooo      ",
"               oooooooooooooooooo      ooo      ",
"               oooooooooooooooooo      ooo      ",
"               oooooooooooooooooo      ooo      ",
"               oooooooooooooooooo      ooo      ",
"               oooooooooooooooooo      ooo      ",
"               oooooooooooooooooo      ooo      ",
"               ooo...oooooo...ooo      ooo      ",
"               ooo...oooooo...ooo      ooo      ",
"               ooo...oooooo...ooo      ooo      ",
"               oooooooooooooooooo      ooo      ",
"               oooooooooooooooooo      ooo      ",
"               oooooooooooooooooo      ooo      ",
"         oooooo   oooooooooooo   ooo   ooo      ",
"         oooooo   oooooooooooo   ooo   ooo      ",
"         oooooo   oooooooooooo   ooo   ooo      ",
"      oooooooooooooooXXXXXXooooooooo   XXX      ",
"      oooooooooooooooXXXXXXooooooooo   XXX      ",
"      oooooooooooooooXXXXXXooooooooo   XXX      ",
"      ooo      oooooooooooooooooo      XXX      ",
"      ooo      oooooooooooooooooo      XXX      ",
"      ooo      oooooooooooooooooo      XXX      ",
"      ooo      oooooooooooooooooo   ooooooooo   ",
"      ooo      oooooooooooooooooo   ooooooooo   ",
"      ooo      oooooooooooooooooo   ooooooooo   ",
"      oooooo   oooooooooooooooooo      ooo      ",
"      oooooo   oooooooooooooooooo      ooo      ",
"      oooooo   oooooooooooooooooo      ooo      ",
"      oooooo   ooo            oooooo   ooo      ",
"      oooooo   ooo            oooooo   ooo      ",
"      oooooo   ooo            oooooo   ooo      ",
"               ooo            ooo               ",
"               ooo            ooo               ",
"               ooo            ooo               ",
"               ooo            ooo               ",
"               ooo            ooo               ",
"               ooo            ooo               ",
"                                                ",
"                                                ",
"                                                "
};
