/* XPM */
static char *player1x3_04[] = {
/* columns rows colors chars-per-pixel */
"48 48 4 1 ",
"  c #444C5E",
". c #65718B",
"X c #B4BDD0",
"o c #F9FAFB",
/* pixels */
"                                                ",
"                                                ",
"                                                ",
"                                                ",
"                                                ",
"                                                ",
"                  oooooooooooo                  ",
"                  oooooooooooo                  ",
"                  oooooooooooo                  ",
"               oooooooooooooooooo               ",
"               oooooooooooooooooo               ",
"               oooooooooooooooooo               ",
"               oooooooooooooooooo               ",
"               oooooooooooooooooo               ",
"               oooooooooooooooooo               ",
"               ooo...oooooo...ooo               ",
"               ooo...oooooo...ooo               ",
"               ooo...oooooo...ooo               ",
"               oooooooooooooooooo               ",
"               oooooooooooooooooo               ",
"               oooooooooooooooooo               ",
"         oooooo   oooooooooooo   oooooo         ",
"         oooooo   oooooooooooo   oooooo         ",
"         oooooo   oooooooooooo   oooooo         ",
"      oooooooooooooooXXXXXXooooooooooooooo      ",
"      oooooooooooooooXXXXXXooooooooooooooo      ",
"      oooooooooooooooXXXXXXooooooooooooooo      ",
"      ooo      oooooooooooooooooo      ooo      ",
"      ooo      oooooooooooooooooo      ooo      ",
"      ooo      oooooooooooooooooo      ooo      ",
"      ooo      oooooooooooooooooo      ooo      ",
"      ooo      oooooooooooooooooo      ooo      ",
"      ooo      oooooooooooooooooo      ooo      ",
"      oooooo   oooooooooooooooooo   oooooo      ",
"      oooooo   oooooooooooooooooo   oooooo      ",
"      oooooo   oooooooooooooooooo   oooooo      ",
"      oooooo   ooo            ooo   oooooo      ",
"      oooooo   ooo            ooo   oooooo      ",
"      oooooo   ooo            ooo   oooooo      ",
"               ooo            ooo               ",
"               ooo            ooo               ",
"               ooo            ooo               ",
"               ooo            ooo               ",
"               ooo            ooo               ",
"               ooo            ooo               ",
"                                                ",
"                                                ",
"                                                "
};
