/* XPM */
static char *wall2x3_07[] = {
/* columns rows colors chars-per-pixel */
"48 48 4 1 ",
"  c #444C5E",
". c #65718B",
"X c #B4BDD0",
"o c #F9FAFB",
/* pixels */
"                                                ",
"                                                ",
"                                                ",
"   oooooo   ooo      oooooo   ooooooooooooooo   ",
"   oooooo   ooo      oooooo   ooooooooooooooo   ",
"   oooooo   ooo      oooooo   ooooooooooooooo   ",
"   ooo   ooo   ooo   oooooo   ooooooooooooooo   ",
"   ooo   ooo   ooo   oooooo   ooooooooooooooo   ",
"   ooo   ooo   ooo   oooooo   ooooooooooooooo   ",
"                                                ",
"                                                ",
"                                                ",
"   XXXXXX   ......   XXXXXX......      XXXXXX   ",
"   XXXXXX   ......   XXXXXX......      XXXXXX   ",
"   XXXXXX   ......   XXXXXX......      XXXXXX   ",
"   XXXXXX   ......   XXXXXX   ...      XXX      ",
"   XXXXXX   ......   XXXXXX   ...      XXX      ",
"   XXXXXX   ......   XXXXXX   ...      XXX      ",
"                                       XXX      ",
"                                       XXX      ",
"                                       XXX      ",
"   XXX      ......   XXXXXX      ...   XXX      ",
"   XXX      ......   XXXXXX      ...   XXX      ",
"   XXX      ......   XXXXXX      ...   XXX      ",
"   XXXXXX      ...   XXXXXX   ...      XXX      ",
"   XXXXXX      ...   XXXXXX   ...      XXX      ",
"   XXXXXX      ...   XXXXXX   ...      XXX      ",
"   XXXXXX            XXXXXX            XXX      ",
"   XXXXXX            XXXXXX            XXX      ",
"   XXXXXX            XXXXXX            XXX      ",
"   XXXXXX   ......   XXXXXX.........   XXXXXX   ",
"   XXXXXX   ......   XXXXXX.........   XXXXXX   ",
"   XXXXXX   ......   XXXXXX.........   XXXXXX   ",
"   XXXXXX   ...      XXXXXX   ......   XXXXXX   ",
"   XXXXXX   ...      XXXXXX   ......   XXXXXX   ",
"   XXXXXX   ...      XXXXXX   ......   XXXXXX   ",
"                                                ",
"                                                ",
"                                                ",
"   ooooooooooooooo   oooooo   ooo   ooooooooo   ",
"   ooooooooooooooo   oooooo   ooo   ooooooooo   ",
"   ooooooooooooooo   oooooo   ooo   ooooooooo   ",
"   ooo   ooooooooo   oooooo   ooooooooooooooo   ",
"   ooo   ooooooooo   oooooo   ooooooooooooooo   ",
"   ooo   ooooooooo   oooooo   ooooooooooooooo   ",
"                                                ",
"                                                ",
"                                                "
};
