/* XPM */
static char *wall2x3_03[] = {
/* columns rows colors chars-per-pixel */
"48 48 16 1 ",
"  c #FF04FF",
". c #332C2C",
"X c #413737",
"o c #57514E",
"O c #A09A8E",
"+ c #F0EEE9",
"@ c black",
"# c black",
"$ c black",
"% c black",
"& c black",
"* c black",
"= c black",
"- c black",
"; c black",
": c black",
/* pixels */
"XXXXXXXXXXXXXXXXXXXXXXXXXXXXXXXXXXXXXXXXXXXXXXXX",
"XXXXXXXXXXXXXXXXXXXXXXXXXXXXXXXXXXXXXXXXXXXXXXXX",
"XXXXXXXXXXXXXXXXXXXXXXXXXXXXXXXXXXXXXXXXXXXXXXXX",
"XXX++++++XXX+++XXXXXX++++++XXX+++++++++++++++XXX",
"XXX++++++XXX+++XXXXXX++++++XXX+++++++++++++++XXX",
"XXX++++++XXX+++XXXXXX++++++XXX+++++++++++++++XXX",
"XXX+++XXX+++XXX+++XXX++++++XXX+++++++++++++++XXX",
"XXX+++XXX+++XXX+++XXX++++++XXX+++++++++++++++XXX",
"XXX+++XXX+++XXX+++XXX++++++XXX+++++++++++++++XXX",
"XXXXXXXXXXXXXXXXXXXXXXXXXXXXXXXXXXXXXXXXXXXXXXXX",
"XXXXXXXXXXXXXXXXXXXXXXXXXXXXXXXXXXXXXXXXXXXXXXXX",
"XXXXXXXXXXXXXXXXXXXXXXXXXXXXXXXXXXXXXXXXXXXXXXXX",
"XXXOOOOOOXXXooooooXXXXXXXXXXXXXXXOOOOOOOOOXXXXXX",
"XXXOOOOOOXXXooooooXXXXXXXXXXXXXXXOOOOOOOOOXXXXXX",
"XXXOOOOOOXXXooooooXXXXXXXXXXXXXXXOOOOOOOOOXXXXXX",
"XXXOOOOOOXXXoooooooooOOOXXXXXXXXXOOOOOOOOOXXXXXX",
"XXXOOOOOOXXXoooooooooOOOXXXXXXXXXOOOOOOOOOXXXXXX",
"XXXOOOOOOXXXoooooooooOOOXXXXXXXXXOOOOOOOOOXXXXXX",
"XXXXXXXXXXXXXXXXXXXXXOOOOOOXXXXXXXXXXXXXXXXXXXXX",
"XXXXXXXXXXXXXXXXXXXXXOOOOOOXXXXXXXXXXXXXXXXXXXXX",
"XXXXXXXXXXXXXXXXXXXXXOOOOOOXXXXXXXXXXXXXXXXXXXXX",
"XXXXXXOOOOOOooooooXXXOOOOOOXXXXXXXXXOOOOOOoooXXX",
"XXXXXXOOOOOOooooooXXXOOOOOOXXXXXXXXXOOOOOOoooXXX",
"XXXXXXOOOOOOooooooXXXOOOOOOXXXXXXXXXOOOOOOoooXXX",
"XXXXXXOOOOOOooooooXXXOOOOOOXXXXXXXXXOOOOOOoooXXX",
"XXXXXXOOOOOOooooooXXXOOOOOOXXXXXXXXXOOOOOOoooXXX",
"XXXXXXOOOOOOooooooXXXOOOOOOXXXXXXXXXOOOOOOoooXXX",
"XXXXXXXXXXXXXXXXXXXXXOOOOOOXXXXXXXXXXXXXXXXXXXXX",
"XXXXXXXXXXXXXXXXXXXXXOOOOOOXXXXXXXXXXXXXXXXXXXXX",
"XXXXXXXXXXXXXXXXXXXXXOOOOOOXXXXXXXXXXXXXXXXXXXXX",
"XXXXXXOOOOOOXXXXXXXXXOOOOOOXXXoooXXXOOOOOOXXXXXX",
"XXXXXXOOOOOOXXXXXXXXXOOOOOOXXXoooXXXOOOOOOXXXXXX",
"XXXXXXOOOOOOXXXXXXXXXOOOOOOXXXoooXXXOOOOOOXXXXXX",
"XXXOOOOOOOOOoooXXXXXXOOOOOOXXXoooXXXOOOOOOoooXXX",
"XXXOOOOOOOOOoooXXXXXXOOOOOOXXXoooXXXOOOOOOoooXXX",
"XXXOOOOOOOOOoooXXXXXXOOOOOOXXXoooXXXOOOOOOoooXXX",
"XXXXXXXXXXXXXXXXXXXXXXXXXXXXXXXXXXXXXXXXXXXXXXXX",
"XXXXXXXXXXXXXXXXXXXXXXXXXXXXXXXXXXXXXXXXXXXXXXXX",
"XXXXXXXXXXXXXXXXXXXXXXXXXXXXXXXXXXXXXXXXXXXXXXXX",
"XXX++++++XXX+++XXXXXX++++++XXX+++++++++++++++XXX",
"XXX++++++XXX+++XXXXXX++++++XXX+++++++++++++++XXX",
"XXX++++++XXX+++XXXXXX++++++XXX+++++++++++++++XXX",
"XXX+++XXX+++XXX+++XXX++++++XXX+++++++++++++++XXX",
"XXX+++XXX+++XXX+++XXX++++++XXX+++++++++++++++XXX",
"XXX+++XXX+++XXX+++XXX++++++XXX+++++++++++++++XXX",
"XXXXXXXXXXXXXXXXXXXXXXXXXXXXXXXXXXXXXXXXXXXXXXXX",
"XXXXXXXXXXXXXXXXXXXXXXXXXXXXXXXXXXXXXXXXXXXXXXXX",
"XXXXXXXXXXXXXXXXXXXXXXXXXXXXXXXXXXXXXXXXXXXXXXXX"
};
