/* XPM */
static char *wall2x3_00[] = {
/* columns rows colors chars-per-pixel */
"48 48 4 1 ",
"  c #444C5E",
". c #65718B",
"X c #B4BDD0",
"o c #F9FAFB",
/* pixels */
"                                                ",
"                                                ",
"                                                ",
"   oooooo   ooo      oooooo   ooooooooooooooo   ",
"   oooooo   ooo      oooooo   ooooooooooooooo   ",
"   oooooo   ooo      oooooo   ooooooooooooooo   ",
"   ooo   ooo   ooo   oooooo   ooooooooooooooo   ",
"   ooo   ooo   ooo   oooooo   ooooooooooooooo   ",
"   ooo   ooo   ooo   oooooo   ooooooooooooooo   ",
"                                                ",
"                                                ",
"                                                ",
"   XXXXXX      ...   XXXXXXXXX         XXXXXX   ",
"   XXXXXX      ...   XXXXXXXXX         XXXXXX   ",
"   XXXXXX      ...   XXXXXXXXX         XXXXXX   ",
"      XXXXXX         XXXXXXXXX                  ",
"      XXXXXX         XXXXXXXXX                  ",
"      XXXXXX         XXXXXXXXX                  ",
"      XXXXXX         XXXXXX            XXXXXX   ",
"      XXXXXX         XXXXXX            XXXXXX   ",
"      XXXXXX         XXXXXX            XXXXXX   ",
"      XXXXXX......   XXXXXX            XXXXXX   ",
"      XXXXXX......   XXXXXX            XXXXXX   ",
"      XXXXXX......   XXXXXX            XXXXXX   ",
"      XXXXXX......   XXXXXX   ...   ...XXXXXX   ",
"      XXXXXX......   XXXXXX   ...   ...XXXXXX   ",
"      XXXXXX......   XXXXXX   ...   ...XXXXXX   ",
"      XXXXXX         XXXXXX            XXXXXX   ",
"      XXXXXX         XXXXXX            XXXXXX   ",
"      XXXXXX         XXXXXX            XXXXXX   ",
"      XXXXXX.........XXXXXX   ...      XXXXXX   ",
"      XXXXXX.........XXXXXX   ...      XXXXXX   ",
"      XXXXXX.........XXXXXX   ...      XXXXXX   ",
"      XXXXXX         XXXXXX   ......   XXXXXX   ",
"      XXXXXX         XXXXXX   ......   XXXXXX   ",
"      XXXXXX         XXXXXX   ......   XXXXXX   ",
"                                                ",
"                                                ",
"                                                ",
"   ooo   oooooo      oooooo   ooooooooo   ooo   ",
"   ooo   oooooo      oooooo   ooooooooo   ooo   ",
"   ooo   oooooo      oooooo   ooooooooo   ooo   ",
"   ooo   ooooooooo   oooooo   ooooooooo   ooo   ",
"   ooo   ooooooooo   oooooo   ooooooooo   ooo   ",
"   ooo   ooooooooo   oooooo   ooooooooo   ooo   ",
"                                                ",
"                                                ",
"                                                "
};
