/* XPM */
static char *wall2x3_08[] = {
/* columns rows colors chars-per-pixel */
"48 48 4 1 ",
"  c #444C5E",
". c #65718B",
"X c #B4BDD0",
"o c #F9FAFB",
/* pixels */
"                                                ",
"                                                ",
"                                                ",
"   ooooooooo   ooo   oooooo      ooo   oooooo   ",
"   ooooooooo   ooo   oooooo      ooo   oooooo   ",
"   ooooooooo   ooo   oooooo      ooo   oooooo   ",
"   ooooooooo   ooo   oooooo   ooo   ooo   ooo   ",
"   ooooooooo   ooo   oooooo   ooo   ooo   ooo   ",
"   ooooooooo   ooo   oooooo   ooo   ooo   ooo   ",
"                                                ",
"                                                ",
"                                                ",
"      XXXXXX   ...   XXXXXX   ......   XXXXXX   ",
"      XXXXXX   ...   XXXXXX   ......   XXXXXX   ",
"      XXXXXX   ...   XXXXXX   ......   XXXXXX   ",
"      XXXXXX         XXXXXX            XXXXXX   ",
"      XXXXXX         XXXXXX            XXXXXX   ",
"      XXXXXX         XXXXXX            XXXXXX   ",
"      XXXXXX         XXXXXX                     ",
"      XXXXXX         XXXXXX                     ",
"      XXXXXX         XXXXXX                     ",
"      XXXXXX...      XXXXXX               XXX   ",
"      XXXXXX...      XXXXXX               XXX   ",
"      XXXXXX...      XXXXXX               XXX   ",
"                     XXX                  XXX   ",
"                     XXX                  XXX   ",
"                     XXX                  XXX   ",
"      XXX            XXXXXX            XXXXXX   ",
"      XXX            XXXXXX            XXXXXX   ",
"      XXX            XXXXXX            XXXXXX   ",
"      XXXXXX         XXXXXX   ......   XXXXXX   ",
"      XXXXXX         XXXXXX   ......   XXXXXX   ",
"      XXXXXX         XXXXXX   ......   XXXXXX   ",
"      XXXXXX         XXXXXX   ...      XXXXXX   ",
"      XXXXXX         XXXXXX   ...      XXXXXX   ",
"      XXXXXX         XXXXXX   ...      XXXXXX   ",
"                                                ",
"                                                ",
"                                                ",
"   ooooooooooooooo   oooooo      ooo   oooooo   ",
"   ooooooooooooooo   oooooo      ooo   oooooo   ",
"   ooooooooooooooo   oooooo      ooo   oooooo   ",
"   ooooooooooooooo   oooooo   ooo         ooo   ",
"   ooooooooooooooo   oooooo   ooo         ooo   ",
"   ooooooooooooooo   oooooo   ooo         ooo   ",
"                                                ",
"                                                ",
"                                                "
};
