/* XPM */
static char *wall2x3_02[] = {
/* columns rows colors chars-per-pixel */
"48 48 4 1 ",
"  c #444C5E",
". c #65718B",
"X c #B4BDD0",
"o c #F9FAFB",
/* pixels */
"                                                ",
"                                                ",
"                                                ",
"   ooooooooooooooo   oooooo      ooo   oooooo   ",
"   ooooooooooooooo   oooooo      ooo   oooooo   ",
"   ooooooooooooooo   oooooo      ooo   oooooo   ",
"   ooooooooooooooo   oooooo   ooo   ooo   ooo   ",
"   ooooooooooooooo   oooooo   ooo   ooo   ooo   ",
"   ooooooooooooooo   oooooo   ooo   ooo   ooo   ",
"                                                ",
"                                                ",
"                                                ",
"      XXXXXXXXX               ......   XXXXXX   ",
"      XXXXXXXXX               ......   XXXXXX   ",
"      XXXXXXXXX               ......   XXXXXX   ",
"      XXXXXXXXX         XXX.........   XXXXXX   ",
"      XXXXXXXXX         XXX.........   XXXXXX   ",
"      XXXXXXXXX         XXX.........   XXXXXX   ",
"                     XXXXXX                     ",
"                     XXXXXX                     ",
"                     XXXXXX                     ",
"   ...XXXXXX         XXXXXX   ......XXXXXX      ",
"   ...XXXXXX         XXXXXX   ......XXXXXX      ",
"   ...XXXXXX         XXXXXX   ......XXXXXX      ",
"   ...XXXXXX         XXXXXX   ......XXXXXX      ",
"   ...XXXXXX         XXXXXX   ......XXXXXX      ",
"   ...XXXXXX         XXXXXX   ......XXXXXX      ",
"                     XXXXXX                     ",
"                     XXXXXX                     ",
"                     XXXXXX                     ",
"      XXXXXX   ...   XXXXXX         XXXXXX      ",
"      XXXXXX   ...   XXXXXX         XXXXXX      ",
"      XXXXXX   ...   XXXXXX         XXXXXX      ",
"   ...XXXXXX   ...   XXXXXX      ...XXXXXXXXX   ",
"   ...XXXXXX   ...   XXXXXX      ...XXXXXXXXX   ",
"   ...XXXXXX   ...   XXXXXX      ...XXXXXXXXX   ",
"                                                ",
"                                                ",
"                                                ",
"   ooooooooooooooo   oooooo      ooo   oooooo   ",
"   ooooooooooooooo   oooooo      ooo   oooooo   ",
"   ooooooooooooooo   oooooo      ooo   oooooo   ",
"   ooooooooooooooo   oooooo   ooo   ooo   ooo   ",
"   ooooooooooooooo   oooooo   ooo   ooo   ooo   ",
"   ooooooooooooooo   oooooo   ooo   ooo   ooo   ",
"                                                ",
"                                                ",
"                                                "
};
