/* XPM */
static char *wall2x3_09[] = {
/* columns rows colors chars-per-pixel */
"48 48 16 1 ",
"  c #FF04FF",
". c #332C2C",
"X c #413737",
"o c #57514E",
"O c #A09A8E",
"+ c #F0EEE9",
"@ c black",
"# c black",
"$ c black",
"% c black",
"& c black",
"* c black",
"= c black",
"- c black",
"; c black",
": c black",
/* pixels */
"XXXXXXXXXXXXXXXXXXXXXXXXXXXXXXXXXXXXXXXXXXXXXXXX",
"XXXXXXXXXXXXXXXXXXXXXXXXXXXXXXXXXXXXXXXXXXXXXXXX",
"XXXXXXXXXXXXXXXXXXXXXXXXXXXXXXXXXXXXXXXXXXXXXXXX",
"XXX++++++XXX+++XXXXXX++++++XXX+++XXX+++++++++XXX",
"XXX++++++XXX+++XXXXXX++++++XXX+++XXX+++++++++XXX",
"XXX++++++XXX+++XXXXXX++++++XXX+++XXX+++++++++XXX",
"XXX+++XXX+++XXX+++XXX++++++XXX+++XXX+++++++++XXX",
"XXX+++XXX+++XXX+++XXX++++++XXX+++XXX+++++++++XXX",
"XXX+++XXX+++XXX+++XXX++++++XXX+++XXX+++++++++XXX",
"XXXXXXXXXXXXXXXXXXXXXXXXXXXXXXXXXXXXXXXXXXXXXXXX",
"XXXXXXXXXXXXXXXXXXXXXXXXXXXXXXXXXXXXXXXXXXXXXXXX",
"XXXXXXXXXXXXXXXXXXXXXXXXXXXXXXXXXXXXXXXXXXXXXXXX",
"XXXOOOOOOXXXooooooXXXOOOOOOXXXoooXXXOOOOOOXXXXXX",
"XXXOOOOOOXXXooooooXXXOOOOOOXXXoooXXXOOOOOOXXXXXX",
"XXXOOOOOOXXXooooooXXXOOOOOOXXXoooXXXOOOOOOXXXXXX",
"XXXOOOOOOXXXXXXXXXXXXOOOOOOXXXXXXXXXOOOOOOXXXXXX",
"XXXOOOOOOXXXXXXXXXXXXOOOOOOXXXXXXXXXOOOOOOXXXXXX",
"XXXOOOOOOXXXXXXXXXXXXOOOOOOXXXXXXXXXOOOOOOXXXXXX",
"XXXXXXXXXXXXXXXXXXXXXOOOOOOXXXXXXXXXOOOOOOXXXXXX",
"XXXXXXXXXXXXXXXXXXXXXOOOOOOXXXXXXXXXOOOOOOXXXXXX",
"XXXXXXXXXXXXXXXXXXXXXOOOOOOXXXXXXXXXOOOOOOXXXXXX",
"XXXOOOXXXXXXXXXXXXXXXOOOOOOXXXXXXoooOOOOOOXXXXXX",
"XXXOOOXXXXXXXXXXXXXXXOOOOOOXXXXXXoooOOOOOOXXXXXX",
"XXXOOOXXXXXXXXXXXXXXXOOOOOOXXXXXXoooOOOOOOXXXXXX",
"XXXOOOXXXXXXXXXXXXXXXXXXOOOXXXXXXXXXXXXXXXXXXXXX",
"XXXOOOXXXXXXXXXXXXXXXXXXOOOXXXXXXXXXXXXXXXXXXXXX",
"XXXOOOXXXXXXXXXXXXXXXXXXOOOXXXXXXXXXXXXXXXXXXXXX",
"XXXOOOOOOXXXXXXXXXXXXOOOOOOXXXXXXXXXXXXOOOXXXXXX",
"XXXOOOOOOXXXXXXXXXXXXOOOOOOXXXXXXXXXXXXOOOXXXXXX",
"XXXOOOOOOXXXXXXXXXXXXOOOOOOXXXXXXXXXXXXOOOXXXXXX",
"XXXOOOOOOXXXooooooXXXOOOOOOXXXXXXXXXOOOOOOXXXXXX",
"XXXOOOOOOXXXooooooXXXOOOOOOXXXXXXXXXOOOOOOXXXXXX",
"XXXOOOOOOXXXooooooXXXOOOOOOXXXXXXXXXOOOOOOXXXXXX",
"XXXOOOOOOXXXXXXoooXXXOOOOOOXXXXXXXXXOOOOOOXXXXXX",
"XXXOOOOOOXXXXXXoooXXXOOOOOOXXXXXXXXXOOOOOOXXXXXX",
"XXXOOOOOOXXXXXXoooXXXOOOOOOXXXXXXXXXOOOOOOXXXXXX",
"XXXXXXXXXXXXXXXXXXXXXXXXXXXXXXXXXXXXXXXXXXXXXXXX",
"XXXXXXXXXXXXXXXXXXXXXXXXXXXXXXXXXXXXXXXXXXXXXXXX",
"XXXXXXXXXXXXXXXXXXXXXXXXXXXXXXXXXXXXXXXXXXXXXXXX",
"XXX++++++XXX+++XXXXXX++++++XXX+++++++++++++++XXX",
"XXX++++++XXX+++XXXXXX++++++XXX+++++++++++++++XXX",
"XXX++++++XXX+++XXXXXX++++++XXX+++++++++++++++XXX",
"XXX+++XXXXXXXXX+++XXX++++++XXX+++++++++++++++XXX",
"XXX+++XXXXXXXXX+++XXX++++++XXX+++++++++++++++XXX",
"XXX+++XXXXXXXXX+++XXX++++++XXX+++++++++++++++XXX",
"XXXXXXXXXXXXXXXXXXXXXXXXXXXXXXXXXXXXXXXXXXXXXXXX",
"XXXXXXXXXXXXXXXXXXXXXXXXXXXXXXXXXXXXXXXXXXXXXXXX",
"XXXXXXXXXXXXXXXXXXXXXXXXXXXXXXXXXXXXXXXXXXXXXXXX"
};
