/* XPM */
static char *wall2x3_06[] = {
/* columns rows colors chars-per-pixel */
"48 48 4 1 ",
"  c #444C5E",
". c #65718B",
"X c #B4BDD0",
"o c #F9FAFB",
/* pixels */
"                                                ",
"                                                ",
"                                                ",
"   ooooooooooooooo   oooooo      ooo   oooooo   ",
"   ooooooooooooooo   oooooo      ooo   oooooo   ",
"   ooooooooooooooo   oooooo      ooo   oooooo   ",
"   ooooooooooooooo   oooooo   ooo   ooo   ooo   ",
"   ooooooooooooooo   oooooo   ooo   ooo   ooo   ",
"   ooooooooooooooo   oooooo   ooo   ooo   ooo   ",
"                                                ",
"                                                ",
"                                                ",
"   XXXXXX      ......XXXXXX   ......   XXXXXX   ",
"   XXXXXX      ......XXXXXX   ......   XXXXXX   ",
"   XXXXXX      ......XXXXXX   ......   XXXXXX   ",
"      XXX      ...   XXXXXX   ......   XXXXXX   ",
"      XXX      ...   XXXXXX   ......   XXXXXX   ",
"      XXX      ...   XXXXXX   ......   XXXXXX   ",
"      XXX                                       ",
"      XXX                                       ",
"      XXX                                       ",
"      XXX   ...      XXXXXX   ......      XXX   ",
"      XXX   ...      XXXXXX   ......      XXX   ",
"      XXX   ...      XXXXXX   ......      XXX   ",
"      XXX      ...   XXXXXX   ...      XXXXXX   ",
"      XXX      ...   XXXXXX   ...      XXXXXX   ",
"      XXX      ...   XXXXXX   ...      XXXXXX   ",
"      XXX            XXXXXX            XXXXXX   ",
"      XXX            XXXXXX            XXXXXX   ",
"      XXX            XXXXXX            XXXXXX   ",
"   XXXXXX   .........XXXXXX   ......   XXXXXX   ",
"   XXXXXX   .........XXXXXX   ......   XXXXXX   ",
"   XXXXXX   .........XXXXXX   ......   XXXXXX   ",
"   XXXXXX   ......   XXXXXX      ...   XXXXXX   ",
"   XXXXXX   ......   XXXXXX      ...   XXXXXX   ",
"   XXXXXX   ......   XXXXXX      ...   XXXXXX   ",
"                                                ",
"                                                ",
"                                                ",
"   ooooooooo   ooo   oooooo   ooooooooooooooo   ",
"   ooooooooo   ooo   oooooo   ooooooooooooooo   ",
"   ooooooooo   ooo   oooooo   ooooooooooooooo   ",
"   ooooooooooooooo   oooooo   ooooooooo   ooo   ",
"   ooooooooooooooo   oooooo   ooooooooo   ooo   ",
"   ooooooooooooooo   oooooo   ooooooooo   ooo   ",
"                                                ",
"                                                ",
"                                                "
};
