/* XPM */
static char *wall2x3_04[] = {
/* columns rows colors chars-per-pixel */
"48 48 4 1 ",
"  c #444C5E",
". c #65718B",
"X c #B4BDD0",
"o c #F9FAFB",
/* pixels */
"                                                ",
"                                                ",
"                                                ",
"   ooooooooooooooo   oooooo      ooo   oooooo   ",
"   ooooooooooooooo   oooooo      ooo   oooooo   ",
"   ooooooooooooooo   oooooo      ooo   oooooo   ",
"   ooooooooooooooo   oooooo   ooo   ooo   ooo   ",
"   ooooooooooooooo   oooooo   ooo   ooo   ooo   ",
"   ooooooooooooooo   oooooo   ooo   ooo   ooo   ",
"                                                ",
"                                                ",
"                                                ",
"   XXXXXX         XXXXXXXXX   ...      XXXXXX   ",
"   XXXXXX         XXXXXXXXX   ...      XXXXXX   ",
"   XXXXXX         XXXXXXXXX   ...      XXXXXX   ",
"                  XXXXXXXXX         XXXXXX      ",
"                  XXXXXXXXX         XXXXXX      ",
"                  XXXXXXXXX         XXXXXX      ",
"   XXXXXX            XXXXXX         XXXXXX      ",
"   XXXXXX            XXXXXX         XXXXXX      ",
"   XXXXXX            XXXXXX         XXXXXX      ",
"   XXXXXX            XXXXXX   ......XXXXXX      ",
"   XXXXXX            XXXXXX   ......XXXXXX      ",
"   XXXXXX            XXXXXX   ......XXXXXX      ",
"   XXXXXX...   ...   XXXXXX   ......XXXXXX      ",
"   XXXXXX...   ...   XXXXXX   ......XXXXXX      ",
"   XXXXXX...   ...   XXXXXX   ......XXXXXX      ",
"   XXXXXX            XXXXXX         XXXXXX      ",
"   XXXXXX            XXXXXX         XXXXXX      ",
"   XXXXXX            XXXXXX         XXXXXX      ",
"   XXXXXX      ...   XXXXXX.........XXXXXX      ",
"   XXXXXX      ...   XXXXXX.........XXXXXX      ",
"   XXXXXX      ...   XXXXXX.........XXXXXX      ",
"   XXXXXX   ......   XXXXXX         XXXXXX      ",
"   XXXXXX   ......   XXXXXX         XXXXXX      ",
"   XXXXXX   ......   XXXXXX         XXXXXX      ",
"                                                ",
"                                                ",
"                                                ",
"   ooo   ooooooooo   oooooo      oooooo   ooo   ",
"   ooo   ooooooooo   oooooo      oooooo   ooo   ",
"   ooo   ooooooooo   oooooo      oooooo   ooo   ",
"   ooo   ooooooooo   oooooo   ooooooooo   ooo   ",
"   ooo   ooooooooo   oooooo   ooooooooo   ooo   ",
"   ooo   ooooooooo   oooooo   ooooooooo   ooo   ",
"                                                ",
"                                                ",
"                                                "
};
