/* XPM */
static char *weapon1x3[] = {
/* columns rows colors chars-per-pixel */
"48 48 16 1 ",
"  c #FF04FF",
". c #332C2C",
"X c #413737",
"o c #57514E",
"O c #A09A8E",
"+ c #F0EEE9",
"@ c black",
"# c black",
"$ c black",
"% c black",
"& c black",
"* c black",
"= c black",
"- c black",
"; c black",
": c black",
/* pixels */
"XXXXXXXXXXXXXXXXXXXXXXXXXXXXXXXXXXXXXXXXXXXXXXXX",
"XXXXXXXXXXXXXXXXXXXXXXXXXXXXXXXXXXXXXXXXXXXXXXXX",
"XXXXXXXXXXXXXXXXXXXXXXXXXXXXXXXXXXXXXXXXXXXXXXXX",
"XXX......XXXXXX...XXXXXXXXX............++++++XXX",
"XXX......XXXXXX...XXXXXXXXX............++++++XXX",
"XXX......XXXXXX...XXXXXXXXX............++++++XXX",
"XXXXXXXXXXXXXXXXXXXXXXXXXXXXXXXXXXXX+++++++++XXX",
"XXXXXXXXXXXXXXXXXXXXXXXXXXXXXXXXXXXX+++++++++XXX",
"XXXXXXXXXXXXXXXXXXXXXXXXXXXXXXXXXXXX+++++++++XXX",
"XXXXXXXXXXXXXXXXXXXXXXXXXXXXXXXXX+++++++++XXXXXX",
"XXXXXXXXXXXXXXXXXXXXXXXXXXXXXXXXX+++++++++XXXXXX",
"XXXXXXXXXXXXXXXXXXXXXXXXXXXXXXXXX+++++++++XXXXXX",
"XXXXXXXXXXXXXXXXXXXXXXXXXXXXXX+++++++++XXXXXXXXX",
"XXXXXXXXXXXXXXXXXXXXXXXXXXXXXX+++++++++XXXXXXXXX",
"XXXXXXXXXXXXXXXXXXXXXXXXXXXXXX+++++++++XXXXXXXXX",
"XXXXXXXXX.........XXXXXXXXX+++++++++XXX......XXX",
"XXXXXXXXX.........XXXXXXXXX+++++++++XXX......XXX",
"XXXXXXXXX.........XXXXXXXXX+++++++++XXX......XXX",
"XXXXXXXXXXXXXXXXXXXXXXXX+++++++++XXXXXXXXXXXXXXX",
"XXXXXXXXXXXXXXXXXXXXXXXX+++++++++XXXXXXXXXXXXXXX",
"XXXXXXXXXXXXXXXXXXXXXXXX+++++++++XXXXXXXXXXXXXXX",
"XXXXXXXXXXXXXXXXXXXXX+++++++++XXXXXXXXXXXXXXXXXX",
"XXXXXXXXXXXXXXXXXXXXX+++++++++XXXXXXXXXXXXXXXXXX",
"XXXXXXXXXXXXXXXXXXXXX+++++++++XXXXXXXXXXXXXXXXXX",
"XXXXXX+++XXXXXXXXX+++++++++XXXXXXXXXXXXXXXXXXXXX",
"XXXXXX+++XXXXXXXXX+++++++++XXXXXXXXXXXXXXXXXXXXX",
"XXXXXX+++XXXXXXXXX+++++++++XXXXXXXXXXXXXXXXXXXXX",
"XXX...ooo+++XXX+++++++++...............XXXXXXXXX",
"XXX...ooo+++XXX+++++++++...............XXXXXXXXX",
"XXX...ooo+++XXX+++++++++...............XXXXXXXXX",
"XXXXXXXXXooo+++OOO+++...............XXXXXXXXXXXX",
"XXXXXXXXXooo+++OOO+++...............XXXXXXXXXXXX",
"XXXXXXXXXooo+++OOO+++...............XXXXXXXXXXXX",
"XXXXXXXXX+++++++++.....................XXXXXXXXX",
"XXXXXXXXX+++++++++.....................XXXXXXXXX",
"XXXXXXXXX+++++++++.....................XXXXXXXXX",
"XXXXXX+++OOO+++ooo+++..................XXXXXXXXX",
"XXXXXX+++OOO+++ooo+++..................XXXXXXXXX",
"XXXXXX+++OOO+++ooo+++..................XXXXXXXXX",
"XXX+++OOO+++......ooo+++..................XXXXXX",
"XXX+++OOO+++......ooo+++..................XXXXXX",
"XXX+++OOO+++......ooo+++..................XXXXXX",
"XXX++++++XXX........................XXXXXXXXXXXX",
"XXX++++++XXX........................XXXXXXXXXXXX",
"XXX++++++XXX........................XXXXXXXXXXXX",
"XXXXXXXXXXXXXXXXXX............XXXXXXXXXXXXXXXXXX",
"XXXXXXXXXXXXXXXXXX............XXXXXXXXXXXXXXXXXX",
"XXXXXXXXXXXXXXXXXX............XXXXXXXXXXXXXXXXXX"
};
